(G-CODE GENERATED BY FLATCAM v8.994 - www.flatcam.org - Version Date: 2020/11/7)

(Name: esp_ha_integrator-F_Cu.gbr_iso_combined_cnc)
(Type: G-code from Geometry)
(Units: MM)

(Created on Friday, 22 July 2022 at 14:39)

(This preprocessor is the default preprocessor used by FlatCAM.)
(It is made to work with MACH3 compatible motion controllers.)

(TOOL DIAMETER: 0.1132 mm)
(Feedrate_XY: 120.0 mm/min)
(Feedrate_Z: 60.0 mm/min)
(Feedrate rapids 1500.0 mm/min)

(Z_Cut: -0.0501 mm)
(Z_Move: 2.0 mm)
(Z Start: None mm)
(Z End: 15.0 mm)
(X,Y End: None mm)
(Steps per circle: 64)
(Preprocessor Geometry: default)

(X range:    0.4519 ...   68.1281  mm)
(Y range:    0.4519 ...   30.0281  mm)

(Spindle Speed: 0.0 RPM)
G21
G90
G94

G01 F120.00

M5
G00 Z15.0000
G00 X0.0000 Y0.0000
T1
M6    
(MSG, Change to Tool Dia = 0.1132)
M0
G00 Z15.0000

M03
G01 F120.00
G00 X3.8950 Y2.9800
G01 F60.00
G01 Z-0.0501
G01 F120.00
G01 X3.8950 Y9.6800
G01 X18.2950 Y9.6800
G01 X18.2950 Y2.9800
G01 X3.8950 Y2.9800
G00 Z2.0000
G00 X7.1984 Y13.4915
G01 F60.00
G01 Z-0.0501
G01 F120.00
G01 X7.1015 Y13.7254
G01 X7.0424 Y13.9716
G01 X7.0225 Y14.2240
G01 X7.0424 Y14.4764
G01 X7.1015 Y14.7226
G01 X7.1984 Y14.9565
G01 X7.3307 Y15.1724
G01 X7.4951 Y15.3649
G01 X7.6876 Y15.5293
G01 X7.9035 Y15.6616
G01 X8.1374 Y15.7585
G01 X8.3836 Y15.8176
G01 X8.5692 Y15.8322
G01 X8.5728 Y15.8325
G01 X8.6992 Y15.8325
G01 X8.8884 Y15.8176
G01 X9.1346 Y15.7585
G01 X9.3685 Y15.6616
G01 X9.5844 Y15.5293
G01 X9.6464 Y15.4764
G01 X9.7769 Y15.3649
G01 X9.9413 Y15.1724
G01 X10.0736 Y14.9565
G01 X10.1705 Y14.7226
G01 X10.2021 Y14.5911
G01 X10.2296 Y14.4764
G01 X10.2495 Y14.2240
G01 X10.2296 Y13.9716
G01 X10.1705 Y13.7254
G01 X10.0736 Y13.4915
G01 X9.9413 Y13.2756
G01 X9.9183 Y13.2487
G01 X9.7769 Y13.0831
G01 X9.5844 Y12.9187
G01 X9.3685 Y12.7864
G01 X9.1346 Y12.6895
G01 X8.8884 Y12.6304
G01 X8.7028 Y12.6158
G01 X8.6992 Y12.6155
G01 X8.5728 Y12.6155
G01 X8.3836 Y12.6304
G01 X8.1374 Y12.6895
G01 X7.9035 Y12.7864
G01 X7.6876 Y12.9187
G01 X7.4951 Y13.0831
G01 X7.3307 Y13.2756
G01 X7.1984 Y13.4915
G00 Z2.0000
G00 X10.7934 Y23.5502
G01 F60.00
G01 Z-0.0501
G01 F120.00
G01 X10.7816 Y23.4716
G01 X10.7610 Y23.3894
G01 X10.7325 Y23.3097
G01 X10.6963 Y23.2331
G01 X10.6527 Y23.1604
G01 X10.6023 Y23.0924
G01 X10.5454 Y23.0296
G01 X10.4826 Y22.9727
G01 X10.4146 Y22.9223
G01 X10.3419 Y22.8787
G01 X10.2653 Y22.8425
G01 X10.1856 Y22.8140
G01 X10.1034 Y22.7934
G01 X10.0196 Y22.7810
G01 X9.9350 Y22.7768
G01 X9.8504 Y22.7810
G01 X9.7666 Y22.7934
G01 X9.6844 Y22.8140
G01 X9.6047 Y22.8425
G01 X9.5281 Y22.8787
G01 X9.4554 Y22.9223
G01 X9.3874 Y22.9727
G01 X9.3246 Y23.0296
G01 X9.2677 Y23.0924
G01 X9.2173 Y23.1604
G01 X9.1737 Y23.2331
G01 X9.1375 Y23.3097
G01 X9.1090 Y23.3894
G01 X9.0884 Y23.4716
G01 X9.0760 Y23.5554
G01 X9.0718 Y23.6400
G01 X9.0760 Y23.7246
G01 X9.0884 Y23.8084
G01 X9.1090 Y23.8906
G01 X9.1375 Y23.9703
G01 X9.1737 Y24.0469
G01 X9.2173 Y24.1196
G01 X9.2677 Y24.1876
G01 X9.3246 Y24.2504
G01 X9.3874 Y24.3073
G01 X9.4554 Y24.3577
G01 X9.5281 Y24.4013
G01 X9.6047 Y24.4375
G01 X9.6844 Y24.4660
G01 X9.7666 Y24.4866
G01 X9.8504 Y24.4990
G01 X9.9350 Y24.5032
G01 X10.0196 Y24.4990
G01 X10.1034 Y24.4866
G01 X10.1856 Y24.4660
G01 X10.2653 Y24.4375
G01 X10.3419 Y24.4013
G01 X10.4146 Y24.3577
G01 X10.4826 Y24.3073
G01 X10.5454 Y24.2504
G01 X10.6023 Y24.1876
G01 X10.6527 Y24.1196
G01 X10.6963 Y24.0469
G01 X10.7325 Y23.9703
G01 X10.7610 Y23.8906
G01 X10.7816 Y23.8084
G01 X10.7940 Y23.7246
G01 X10.7982 Y23.6400
G01 X10.7944 Y23.5606
G01 X10.7934 Y23.5502
G00 Z2.0000
G00 X10.7934 Y26.0902
G01 F60.00
G01 Z-0.0501
G01 F120.00
G01 X10.7816 Y26.0116
G01 X10.7610 Y25.9294
G01 X10.7325 Y25.8497
G01 X10.6963 Y25.7731
G01 X10.6527 Y25.7004
G01 X10.6023 Y25.6324
G01 X10.5454 Y25.5696
G01 X10.4826 Y25.5127
G01 X10.4146 Y25.4623
G01 X10.3419 Y25.4187
G01 X10.2653 Y25.3825
G01 X10.1856 Y25.3540
G01 X10.1034 Y25.3334
G01 X10.0196 Y25.3210
G01 X9.9350 Y25.3168
G01 X9.8504 Y25.3210
G01 X9.7666 Y25.3334
G01 X9.6844 Y25.3540
G01 X9.6047 Y25.3825
G01 X9.5281 Y25.4187
G01 X9.4554 Y25.4623
G01 X9.3874 Y25.5127
G01 X9.3246 Y25.5696
G01 X9.2677 Y25.6324
G01 X9.2173 Y25.7004
G01 X9.1737 Y25.7731
G01 X9.1375 Y25.8497
G01 X9.1090 Y25.9294
G01 X9.0884 Y26.0116
G01 X9.0760 Y26.0954
G01 X9.0718 Y26.1800
G01 X9.0760 Y26.2646
G01 X9.0884 Y26.3484
G01 X9.1090 Y26.4306
G01 X9.1375 Y26.5103
G01 X9.1737 Y26.5869
G01 X9.2173 Y26.6596
G01 X9.2677 Y26.7276
G01 X9.3246 Y26.7904
G01 X9.3874 Y26.8473
G01 X9.4554 Y26.8977
G01 X9.5281 Y26.9413
G01 X9.6047 Y26.9775
G01 X9.6844 Y27.0060
G01 X9.7666 Y27.0266
G01 X9.8504 Y27.0390
G01 X9.9350 Y27.0432
G01 X10.0196 Y27.0390
G01 X10.1034 Y27.0266
G01 X10.1856 Y27.0060
G01 X10.2653 Y26.9775
G01 X10.3419 Y26.9413
G01 X10.4146 Y26.8977
G01 X10.4826 Y26.8473
G01 X10.5454 Y26.7904
G01 X10.6023 Y26.7276
G01 X10.6527 Y26.6596
G01 X10.6963 Y26.5869
G01 X10.7325 Y26.5103
G01 X10.7610 Y26.4306
G01 X10.7816 Y26.3484
G01 X10.7940 Y26.2646
G01 X10.7982 Y26.1800
G01 X10.7944 Y26.1006
G01 X10.7934 Y26.0902
G00 Z2.0000
G00 X8.2534 Y26.0902
G01 F60.00
G01 Z-0.0501
G01 F120.00
G01 X8.2416 Y26.0116
G01 X8.2210 Y25.9294
G01 X8.1925 Y25.8497
G01 X8.1563 Y25.7731
G01 X8.1127 Y25.7004
G01 X8.0623 Y25.6324
G01 X8.0054 Y25.5696
G01 X7.9426 Y25.5127
G01 X7.8746 Y25.4623
G01 X7.8019 Y25.4187
G01 X7.7253 Y25.3825
G01 X7.6456 Y25.3540
G01 X7.5634 Y25.3334
G01 X7.4796 Y25.3210
G01 X7.3950 Y25.3168
G01 X7.3104 Y25.3210
G01 X7.2266 Y25.3334
G01 X7.1444 Y25.3540
G01 X7.0647 Y25.3825
G01 X6.9881 Y25.4187
G01 X6.9154 Y25.4623
G01 X6.8474 Y25.5127
G01 X6.7846 Y25.5696
G01 X6.7277 Y25.6324
G01 X6.6773 Y25.7004
G01 X6.6337 Y25.7731
G01 X6.5975 Y25.8497
G01 X6.5690 Y25.9294
G01 X6.5484 Y26.0116
G01 X6.5360 Y26.0954
G01 X6.5318 Y26.1800
G01 X6.5360 Y26.2646
G01 X6.5484 Y26.3484
G01 X6.5690 Y26.4306
G01 X6.5975 Y26.5103
G01 X6.6337 Y26.5869
G01 X6.6773 Y26.6596
G01 X6.7277 Y26.7276
G01 X6.7846 Y26.7904
G01 X6.8474 Y26.8473
G01 X6.9154 Y26.8977
G01 X6.9881 Y26.9413
G01 X7.0647 Y26.9775
G01 X7.1444 Y27.0060
G01 X7.2266 Y27.0266
G01 X7.3104 Y27.0390
G01 X7.3950 Y27.0432
G01 X7.4796 Y27.0390
G01 X7.5634 Y27.0266
G01 X7.6456 Y27.0060
G01 X7.7253 Y26.9775
G01 X7.8019 Y26.9413
G01 X7.8746 Y26.8977
G01 X7.9426 Y26.8473
G01 X8.0054 Y26.7904
G01 X8.0623 Y26.7276
G01 X8.1127 Y26.6596
G01 X8.1563 Y26.5869
G01 X8.1925 Y26.5103
G01 X8.2210 Y26.4306
G01 X8.2416 Y26.3484
G01 X8.2540 Y26.2646
G01 X8.2582 Y26.1800
G01 X8.2544 Y26.1006
G01 X8.2534 Y26.0902
G00 Z2.0000
G00 X8.1561 Y24.5027
G01 F60.00
G01 Z-0.0501
G01 F120.00
G01 X8.1671 Y24.5010
G01 X8.1779 Y24.4983
G01 X8.1883 Y24.4946
G01 X8.1959 Y24.4911
G01 X8.2056 Y24.4856
G01 X8.2124 Y24.4809
G01 X8.2210 Y24.4739
G01 X8.2270 Y24.4681
G01 X8.2325 Y24.4618
G01 X8.2391 Y24.4529
G01 X8.2435 Y24.4458
G01 X8.2485 Y24.4359
G01 X8.2525 Y24.4255
G01 X8.2548 Y24.4175
G01 X8.2570 Y24.4066
G01 X8.2581 Y24.3956
G01 X8.2582 Y22.8872
G01 X8.2574 Y22.8761
G01 X8.2555 Y22.8652
G01 X8.2525 Y22.8545
G01 X8.2496 Y22.8467
G01 X8.2448 Y22.8366
G01 X8.2406 Y22.8294
G01 X8.2342 Y22.8204
G01 X8.2270 Y22.8119
G01 X8.2189 Y22.8043
G01 X8.2102 Y22.7974
G01 X8.2008 Y22.7915
G01 X8.1909 Y22.7865
G01 X8.1805 Y22.7825
G01 X8.1698 Y22.7795
G01 X8.1589 Y22.7776
G01 X8.1453 Y22.7768
G01 X6.6422 Y22.7768
G01 X6.6311 Y22.7776
G01 X6.6202 Y22.7795
G01 X6.6121 Y22.7817
G01 X6.6017 Y22.7854
G01 X6.5916 Y22.7902
G01 X6.5844 Y22.7944
G01 X6.5754 Y22.8008
G01 X6.5669 Y22.8080
G01 X6.5593 Y22.8161
G01 X6.5524 Y22.8248
G01 X6.5465 Y22.8342
G01 X6.5415 Y22.8441
G01 X6.5375 Y22.8545
G01 X6.5345 Y22.8652
G01 X6.5326 Y22.8761
G01 X6.5318 Y22.8897
G01 X6.5318 Y24.3928
G01 X6.5326 Y24.4039
G01 X6.5345 Y24.4148
G01 X6.5375 Y24.4255
G01 X6.5404 Y24.4333
G01 X6.5439 Y24.4409
G01 X6.5494 Y24.4506
G01 X6.5558 Y24.4596
G01 X6.5630 Y24.4681
G01 X6.5711 Y24.4757
G01 X6.5798 Y24.4826
G01 X6.5892 Y24.4885
G01 X6.5991 Y24.4935
G01 X6.6095 Y24.4975
G01 X6.6202 Y24.5005
G01 X6.6311 Y24.5024
G01 X6.6422 Y24.5032
G01 X8.1453 Y24.5032
G01 X8.1561 Y24.5027
G00 Z2.0000
G00 X6.2057 Y26.6041
G01 F60.00
G01 Z-0.0501
G01 F120.00
G01 X6.2079 Y26.6121
G01 X6.3009 Y26.8117
G01 X6.4273 Y26.9920
G01 X6.5830 Y27.1477
G01 X6.7633 Y27.2741
G01 X6.9629 Y27.3671
G01 X7.1756 Y27.4241
G01 X7.3950 Y27.4433
G01 X7.6144 Y27.4241
G01 X7.8271 Y27.3671
G01 X8.0267 Y27.2741
G01 X8.2070 Y27.1477
G01 X8.3627 Y26.9920
G01 X8.4891 Y26.8117
G01 X8.4927 Y26.8039
G01 X8.5529 Y26.7390
G01 X8.6353 Y26.7066
G01 X8.7237 Y26.7132
G01 X8.8004 Y26.7575
G01 X8.8373 Y26.8039
G01 X8.8409 Y26.8117
G01 X8.9673 Y26.9920
G01 X9.1230 Y27.1477
G01 X9.3033 Y27.2741
G01 X9.5029 Y27.3671
G01 X9.7156 Y27.4241
G01 X9.9350 Y27.4433
G01 X10.1544 Y27.4241
G01 X10.3671 Y27.3671
G01 X10.5667 Y27.2741
G01 X10.7470 Y27.1477
G01 X10.9027 Y26.9920
G01 X11.0291 Y26.8117
G01 X11.0327 Y26.8039
G01 X11.0929 Y26.7390
G01 X11.1753 Y26.7066
G01 X11.2637 Y26.7132
G01 X11.3404 Y26.7575
G01 X11.3773 Y26.8039
G01 X11.3809 Y26.8117
G01 X11.5073 Y26.9920
G01 X11.6630 Y27.1477
G01 X11.8433 Y27.2741
G01 X12.0429 Y27.3671
G01 X12.2556 Y27.4241
G01 X12.4750 Y27.4433
G01 X12.6944 Y27.4241
G01 X12.9071 Y27.3671
G01 X13.1067 Y27.2741
G01 X13.2870 Y27.1477
G01 X13.4427 Y26.9920
G01 X13.5691 Y26.8117
G01 X13.5730 Y26.8034
G01 X13.6332 Y26.7385
G01 X13.7156 Y26.7061
G01 X13.8039 Y26.7127
G01 X13.8806 Y26.7570
G01 X13.9176 Y26.8034
G01 X13.9596 Y26.8762
G01 X14.3347 Y26.5010
G01 X14.3220 Y26.4667
G01 X14.2973 Y26.3977
G01 X14.2794 Y26.3263
G01 X14.2686 Y26.2535
G01 X14.2650 Y26.1800
G01 X14.2686 Y26.1065
G01 X14.2794 Y26.0337
G01 X14.2973 Y25.9623
G01 X14.3220 Y25.8933
G01 X14.3347 Y25.8590
G01 X13.9596 Y25.4838
G01 X13.9176 Y25.5566
G01 X13.8574 Y25.6215
G01 X13.7749 Y25.6539
G01 X13.6866 Y25.6473
G01 X13.6099 Y25.6030
G01 X13.5730 Y25.5566
G01 X13.5691 Y25.5483
G01 X13.4427 Y25.3680
G01 X13.2870 Y25.2123
G01 X13.1067 Y25.0859
G01 X13.0989 Y25.0823
G01 X13.0340 Y25.0221
G01 X13.0016 Y24.9393
G01 X13.0082 Y24.8513
G01 X13.0525 Y24.7746
G01 X13.0989 Y24.7377
G01 X13.1067 Y24.7341
G01 X13.2870 Y24.6077
G01 X13.4427 Y24.4520
G01 X13.5691 Y24.2717
G01 X13.5727 Y24.2639
G01 X13.6329 Y24.1990
G01 X13.7153 Y24.1666
G01 X13.8037 Y24.1732
G01 X13.8804 Y24.2175
G01 X13.9173 Y24.2639
G01 X13.9209 Y24.2717
G01 X14.0473 Y24.4520
G01 X14.2030 Y24.6077
G01 X14.3833 Y24.7341
G01 X14.3916 Y24.7380
G01 X14.4565 Y24.7982
G01 X14.4889 Y24.8806
G01 X14.4823 Y24.9689
G01 X14.4380 Y25.0456
G01 X14.3916 Y25.0826
G01 X14.3188 Y25.1246
G01 X14.6940 Y25.4997
G01 X14.7283 Y25.4870
G01 X14.7973 Y25.4623
G01 X14.8687 Y25.4444
G01 X14.9415 Y25.4336
G01 X15.0150 Y25.4300
G01 X15.0885 Y25.4336
G01 X15.1613 Y25.4444
G01 X15.2327 Y25.4623
G01 X15.3017 Y25.4870
G01 X15.3360 Y25.4997
G01 X15.7112 Y25.1246
G01 X15.6384 Y25.0826
G01 X15.5735 Y25.0224
G01 X15.5411 Y24.9399
G01 X15.5477 Y24.8516
G01 X15.5920 Y24.7749
G01 X15.6384 Y24.7380
G01 X15.6467 Y24.7341
G01 X15.8270 Y24.6077
G01 X15.9827 Y24.4520
G01 X16.1091 Y24.2717
G01 X16.2021 Y24.0721
G01 X16.2591 Y23.8594
G01 X16.2783 Y23.6400
G01 X16.2591 Y23.4206
G01 X16.2021 Y23.2079
G01 X16.1091 Y23.0083
G01 X15.9827 Y22.8280
G01 X15.8270 Y22.6723
G01 X15.6467 Y22.5459
G01 X15.4471 Y22.4529
G01 X15.2344 Y22.3959
G01 X15.0150 Y22.3767
G01 X14.7956 Y22.3959
G01 X14.5829 Y22.4529
G01 X14.3833 Y22.5459
G01 X14.2030 Y22.6723
G01 X14.0473 Y22.8280
G01 X13.9209 Y23.0083
G01 X13.9173 Y23.0161
G01 X13.8571 Y23.0810
G01 X13.7747 Y23.1134
G01 X13.6863 Y23.1068
G01 X13.6096 Y23.0625
G01 X13.5727 Y23.0161
G01 X13.5691 Y23.0083
G01 X13.4427 Y22.8280
G01 X13.2870 Y22.6723
G01 X13.1067 Y22.5459
G01 X12.9071 Y22.4529
G01 X12.6944 Y22.3959
G01 X12.4750 Y22.3767
G01 X12.2556 Y22.3959
G01 X12.0429 Y22.4529
G01 X11.8433 Y22.5459
G01 X11.6630 Y22.6723
G01 X11.5073 Y22.8280
G01 X11.3809 Y23.0083
G01 X11.3773 Y23.0161
G01 X11.3171 Y23.0810
G01 X11.2347 Y23.1134
G01 X11.1463 Y23.1068
G01 X11.0696 Y23.0625
G01 X11.0327 Y23.0161
G01 X11.0291 Y23.0083
G01 X10.9027 Y22.8280
G01 X10.7470 Y22.6723
G01 X10.5667 Y22.5459
G01 X10.3671 Y22.4529
G01 X10.1544 Y22.3959
G01 X9.9350 Y22.3767
G01 X9.7240 Y22.3952
G01 X9.7156 Y22.3959
G01 X9.5029 Y22.4529
G01 X9.3033 Y22.5459
G01 X9.1230 Y22.6723
G01 X8.9673 Y22.8280
G01 X8.9587 Y22.8311
G01 X8.9071 Y22.8702
G01 X8.8203 Y22.8878
G01 X8.7345 Y22.8659
G01 X8.6666 Y22.8090
G01 X8.6389 Y22.7587
G01 X8.5956 Y22.6433
G01 X8.5083 Y22.5267
G01 X8.3917 Y22.4394
G01 X8.2553 Y22.3883
G01 X8.1931 Y22.3815
G01 X6.5969 Y22.3815
G01 X6.5347 Y22.3883
G01 X6.3983 Y22.4394
G01 X6.2817 Y22.5267
G01 X6.1944 Y22.6433
G01 X6.1433 Y22.7797
G01 X6.1365 Y22.8419
G01 X6.1365 Y24.4381
G01 X6.1433 Y24.5003
G01 X6.1944 Y24.6367
G01 X6.2817 Y24.7533
G01 X6.3983 Y24.8406
G01 X6.5137 Y24.8839
G01 X6.5876 Y24.9326
G01 X6.6331 Y25.0086
G01 X6.6410 Y25.0968
G01 X6.6099 Y25.1798
G01 X6.5861 Y25.2065
G01 X6.5830 Y25.2122
G01 X6.4273 Y25.3680
G01 X6.3009 Y25.5483
G01 X6.2079 Y25.7479
G01 X6.1509 Y25.9606
G01 X6.1317 Y26.1800
G01 X6.1509 Y26.3994
G01 X6.2057 Y26.6041
G00 Z2.0000
G00 X0.3958 Y29.7826
G01 F60.00
G01 Z-0.0501
G01 F120.00
G01 X0.4017 Y29.8348
G01 X0.4047 Y29.8481
G01 X0.4082 Y29.8584
G01 X0.4114 Y29.8656
G01 X0.4525 Y29.9507
G01 X0.4568 Y29.9580
G01 X0.4617 Y29.9649
G01 X0.4670 Y29.9715
G01 X0.4729 Y29.9776
G01 X0.4811 Y29.9849
G01 X0.5528 Y30.0420
G01 X0.5621 Y30.0484
G01 X0.5746 Y30.0550
G01 X0.5851 Y30.0591
G01 X0.5932 Y30.0615
G01 X0.6827 Y30.0819
G01 X0.6962 Y30.0841
G01 X0.7071 Y30.0847
G01 X67.8728 Y30.0847
G01 X67.8849 Y30.0840
G01 X67.9348 Y30.0783
G01 X67.9481 Y30.0753
G01 X67.9609 Y30.0707
G01 X68.0482 Y30.0288
G01 X68.0580 Y30.0232
G01 X68.0672 Y30.0166
G01 X68.0756 Y30.0091
G01 X68.0833 Y30.0009
G01 X68.1420 Y29.9272
G01 X68.1484 Y29.9179
G01 X68.1538 Y29.9080
G01 X68.1572 Y29.9002
G01 X68.1608 Y29.8895
G01 X68.1825 Y29.7949
G01 X68.1841 Y29.7838
G01 X68.1847 Y29.7729
G01 X68.1847 Y0.7072
G01 X68.1840 Y0.6951
G01 X68.1783 Y0.6452
G01 X68.1753 Y0.6319
G01 X68.1707 Y0.6191
G01 X68.1288 Y0.5318
G01 X68.1232 Y0.5220
G01 X68.1166 Y0.5128
G01 X68.1091 Y0.5044
G01 X68.1009 Y0.4967
G01 X68.0272 Y0.4380
G01 X68.0179 Y0.4316
G01 X68.0080 Y0.4262
G01 X67.9976 Y0.4218
G01 X67.9895 Y0.4192
G01 X67.8949 Y0.3975
G01 X67.8838 Y0.3959
G01 X67.8729 Y0.3953
G01 X0.7072 Y0.3953
G01 X0.6951 Y0.3960
G01 X0.6452 Y0.4017
G01 X0.6319 Y0.4047
G01 X0.6191 Y0.4093
G01 X0.5318 Y0.4512
G01 X0.5220 Y0.4568
G01 X0.5128 Y0.4634
G01 X0.5044 Y0.4709
G01 X0.4967 Y0.4791
G01 X0.4380 Y0.5528
G01 X0.4316 Y0.5621
G01 X0.4275 Y0.5695
G01 X0.4228 Y0.5798
G01 X0.4192 Y0.5905
G01 X0.3975 Y0.6851
G01 X0.3959 Y0.6962
G01 X0.3953 Y0.7071
G01 X0.3953 Y29.7728
G01 X0.3958 Y29.7826
G00 Z2.0000
G00 X13.3337 Y26.0926
G01 F60.00
G01 Z-0.0501
G01 F120.00
G01 X13.3216 Y26.0116
G01 X13.3010 Y25.9294
G01 X13.2725 Y25.8497
G01 X13.2363 Y25.7731
G01 X13.1927 Y25.7004
G01 X13.1423 Y25.6324
G01 X13.0854 Y25.5696
G01 X13.0226 Y25.5127
G01 X12.9546 Y25.4623
G01 X12.8819 Y25.4187
G01 X12.8053 Y25.3825
G01 X12.7256 Y25.3540
G01 X12.6434 Y25.3334
G01 X12.5596 Y25.3210
G01 X12.4750 Y25.3168
G01 X12.3904 Y25.3210
G01 X12.3066 Y25.3334
G01 X12.2244 Y25.3540
G01 X12.1447 Y25.3825
G01 X12.0681 Y25.4187
G01 X11.9954 Y25.4623
G01 X11.9274 Y25.5127
G01 X11.8646 Y25.5696
G01 X11.8077 Y25.6324
G01 X11.7573 Y25.7004
G01 X11.7137 Y25.7731
G01 X11.6775 Y25.8497
G01 X11.6490 Y25.9294
G01 X11.6284 Y26.0116
G01 X11.6160 Y26.0954
G01 X11.6118 Y26.1800
G01 X11.6160 Y26.2646
G01 X11.6284 Y26.3484
G01 X11.6490 Y26.4306
G01 X11.6775 Y26.5103
G01 X11.7137 Y26.5869
G01 X11.7573 Y26.6596
G01 X11.8077 Y26.7276
G01 X11.8646 Y26.7904
G01 X11.9274 Y26.8473
G01 X11.9954 Y26.8977
G01 X12.0681 Y26.9413
G01 X12.1447 Y26.9775
G01 X12.2244 Y27.0060
G01 X12.3066 Y27.0266
G01 X12.3904 Y27.0390
G01 X12.4750 Y27.0432
G01 X12.5596 Y27.0390
G01 X12.6434 Y27.0266
G01 X12.7256 Y27.0060
G01 X12.8053 Y26.9775
G01 X12.8819 Y26.9413
G01 X12.9546 Y26.8977
G01 X13.0226 Y26.8473
G01 X13.0854 Y26.7904
G01 X13.1423 Y26.7276
G01 X13.1927 Y26.6596
G01 X13.2363 Y26.5869
G01 X13.2725 Y26.5103
G01 X13.3010 Y26.4306
G01 X13.3216 Y26.3484
G01 X13.3340 Y26.2646
G01 X13.3382 Y26.1800
G01 X13.3344 Y26.1006
G01 X13.3337 Y26.0926
G00 Z2.0000
G00 X14.7973 Y26.8977
G01 F60.00
G01 Z-0.0501
G01 F120.00
G01 X14.7283 Y26.8730
G01 X14.6940 Y26.8603
G01 X14.3188 Y27.2354
G01 X14.3915 Y27.2773
G01 X14.5752 Y27.3630
G01 X14.5915 Y27.3689
G01 X14.7873 Y27.4214
G01 X14.8044 Y27.4244
G01 X15.0063 Y27.4420
G01 X15.0237 Y27.4420
G01 X15.2256 Y27.4244
G01 X15.2427 Y27.4214
G01 X15.4385 Y27.3689
G01 X15.4548 Y27.3630
G01 X15.6385 Y27.2773
G01 X15.7112 Y27.2354
G01 X15.3360 Y26.8603
G01 X15.3017 Y26.8730
G01 X15.2327 Y26.8977
G01 X15.1613 Y26.9156
G01 X15.0885 Y26.9264
G01 X15.0150 Y26.9300
G01 X14.9415 Y26.9264
G01 X14.8687 Y26.9156
G01 X14.7973 Y26.8977
G00 Z2.0000
G00 X15.7327 Y26.3977
G01 F60.00
G01 Z-0.0501
G01 F120.00
G01 X15.7080 Y26.4667
G01 X15.6953 Y26.5010
G01 X16.0704 Y26.8762
G01 X16.1123 Y26.8035
G01 X16.1980 Y26.6198
G01 X16.2039 Y26.6035
G01 X16.2564 Y26.4077
G01 X16.2594 Y26.3906
G01 X16.2770 Y26.1887
G01 X16.2770 Y26.1713
G01 X16.2594 Y25.9694
G01 X16.2574 Y25.9581
G01 X16.2564 Y25.9523
G01 X16.2039 Y25.7565
G01 X16.1980 Y25.7402
G01 X16.1123 Y25.5565
G01 X16.0704 Y25.4838
G01 X15.6953 Y25.8590
G01 X15.7080 Y25.8933
G01 X15.7327 Y25.9623
G01 X15.7506 Y26.0337
G01 X15.7614 Y26.1065
G01 X15.7650 Y26.1800
G01 X15.7614 Y26.2535
G01 X15.7506 Y26.3263
G01 X15.7327 Y26.3977
G00 Z2.0000
G00 X15.8737 Y23.5526
G01 F60.00
G01 Z-0.0501
G01 F120.00
G01 X15.8616 Y23.4716
G01 X15.8410 Y23.3894
G01 X15.8125 Y23.3097
G01 X15.7763 Y23.2331
G01 X15.7327 Y23.1604
G01 X15.6823 Y23.0924
G01 X15.6254 Y23.0296
G01 X15.5626 Y22.9727
G01 X15.4946 Y22.9223
G01 X15.4219 Y22.8787
G01 X15.3453 Y22.8425
G01 X15.2656 Y22.8140
G01 X15.1834 Y22.7934
G01 X15.0996 Y22.7810
G01 X15.0150 Y22.7768
G01 X14.9304 Y22.7810
G01 X14.8466 Y22.7934
G01 X14.7644 Y22.8140
G01 X14.6847 Y22.8425
G01 X14.6081 Y22.8787
G01 X14.5354 Y22.9223
G01 X14.4674 Y22.9727
G01 X14.4046 Y23.0296
G01 X14.3477 Y23.0924
G01 X14.2973 Y23.1604
G01 X14.2537 Y23.2331
G01 X14.2175 Y23.3097
G01 X14.1890 Y23.3894
G01 X14.1684 Y23.4716
G01 X14.1560 Y23.5554
G01 X14.1518 Y23.6400
G01 X14.1560 Y23.7246
G01 X14.1684 Y23.8084
G01 X14.1890 Y23.8906
G01 X14.2175 Y23.9703
G01 X14.2537 Y24.0469
G01 X14.2973 Y24.1196
G01 X14.3477 Y24.1876
G01 X14.4046 Y24.2504
G01 X14.4674 Y24.3073
G01 X14.5354 Y24.3577
G01 X14.6081 Y24.4013
G01 X14.6847 Y24.4375
G01 X14.7644 Y24.4660
G01 X14.8466 Y24.4866
G01 X14.9304 Y24.4990
G01 X15.0150 Y24.5032
G01 X15.0996 Y24.4990
G01 X15.1834 Y24.4866
G01 X15.2656 Y24.4660
G01 X15.3453 Y24.4375
G01 X15.4219 Y24.4013
G01 X15.4946 Y24.3577
G01 X15.5626 Y24.3073
G01 X15.6254 Y24.2504
G01 X15.6823 Y24.1876
G01 X15.7327 Y24.1196
G01 X15.7763 Y24.0469
G01 X15.8125 Y23.9703
G01 X15.8410 Y23.8906
G01 X15.8616 Y23.8084
G01 X15.8740 Y23.7246
G01 X15.8782 Y23.6400
G01 X15.8744 Y23.5606
G01 X15.8737 Y23.5526
G00 Z2.0000
G00 X13.3337 Y23.5526
G01 F60.00
G01 Z-0.0501
G01 F120.00
G01 X13.3216 Y23.4716
G01 X13.3010 Y23.3894
G01 X13.2725 Y23.3097
G01 X13.2363 Y23.2331
G01 X13.1927 Y23.1604
G01 X13.1423 Y23.0924
G01 X13.0854 Y23.0296
G01 X13.0226 Y22.9727
G01 X12.9546 Y22.9223
G01 X12.8819 Y22.8787
G01 X12.8053 Y22.8425
G01 X12.7256 Y22.8140
G01 X12.6434 Y22.7934
G01 X12.5596 Y22.7810
G01 X12.4750 Y22.7768
G01 X12.3904 Y22.7810
G01 X12.3066 Y22.7934
G01 X12.2244 Y22.8140
G01 X12.1447 Y22.8425
G01 X12.0681 Y22.8787
G01 X11.9954 Y22.9223
G01 X11.9274 Y22.9727
G01 X11.8646 Y23.0296
G01 X11.8077 Y23.0924
G01 X11.7573 Y23.1604
G01 X11.7137 Y23.2331
G01 X11.6775 Y23.3097
G01 X11.6490 Y23.3894
G01 X11.6284 Y23.4716
G01 X11.6160 Y23.5554
G01 X11.6118 Y23.6400
G01 X11.6160 Y23.7246
G01 X11.6284 Y23.8084
G01 X11.6490 Y23.8906
G01 X11.6775 Y23.9703
G01 X11.7137 Y24.0469
G01 X11.7573 Y24.1196
G01 X11.8077 Y24.1876
G01 X11.8646 Y24.2504
G01 X11.9274 Y24.3073
G01 X11.9954 Y24.3577
G01 X12.0681 Y24.4013
G01 X12.1447 Y24.4375
G01 X12.2244 Y24.4660
G01 X12.3066 Y24.4866
G01 X12.3904 Y24.4990
G01 X12.4750 Y24.5032
G01 X12.5596 Y24.4990
G01 X12.6434 Y24.4866
G01 X12.7256 Y24.4660
G01 X12.8053 Y24.4375
G01 X12.8819 Y24.4013
G01 X12.9546 Y24.3577
G01 X13.0226 Y24.3073
G01 X13.0854 Y24.2504
G01 X13.1423 Y24.1876
G01 X13.1927 Y24.1196
G01 X13.2363 Y24.0469
G01 X13.2725 Y23.9703
G01 X13.3010 Y23.8906
G01 X13.3216 Y23.8084
G01 X13.3340 Y23.7246
G01 X13.3382 Y23.6400
G01 X13.3344 Y23.5606
G01 X13.3337 Y23.5526
G00 Z2.0000
G00 X20.1849 Y21.8768
G01 F60.00
G01 Z-0.0501
G01 F120.00
G01 X20.1431 Y21.9881
G01 X20.1374 Y22.0122
G01 X20.1326 Y22.0566
G01 X20.1320 Y22.0673
G01 X20.1320 Y22.6060
G01 X20.6400 Y22.6060
G01 X20.6400 Y22.1100
G01 X22.6397 Y22.1100
G01 X22.6400 Y22.1103
G01 X22.6400 Y22.6060
G01 X23.1256 Y22.6060
G01 X23.1585 Y22.5985
G01 X23.2154 Y22.5711
G01 X23.3040 Y22.5711
G01 X23.3838 Y22.6095
G01 X23.4004 Y22.6244
G01 X23.8712 Y23.0952
G01 X23.9183 Y23.1702
G01 X23.9295 Y23.2362
G01 X23.9295 Y25.1141
G01 X23.9290 Y25.1286
G01 X23.9253 Y25.1834
G01 X23.9374 Y25.2543
G01 X23.9449 Y25.3162
G01 X23.9491 Y25.3275
G01 X23.9527 Y25.3405
G01 X23.9548 Y25.3523
G01 X23.9798 Y25.4094
G01 X24.0055 Y25.4767
G01 X24.0123 Y25.4865
G01 X24.0189 Y25.4983
G01 X24.0237 Y25.5093
G01 X24.0616 Y25.5588
G01 X24.1026 Y25.6180
G01 X24.1473 Y25.6578
G01 X24.1562 Y25.6662
G01 X25.3816 Y26.8915
G01 X25.4289 Y26.9668
G01 X25.4388 Y27.0548
G01 X25.4096 Y27.1384
G01 X25.3470 Y27.2010
G01 X25.2634 Y27.2302
G01 X25.2407 Y27.2315
G01 X23.2359 Y27.2315
G01 X23.1496 Y27.2118
G01 X23.0952 Y27.1732
G01 X22.6644 Y26.7424
G01 X22.6172 Y26.6674
G01 X22.6073 Y26.5794
G01 X22.6366 Y26.4958
G01 X22.6992 Y26.4332
G01 X22.7503 Y26.4118
G01 X22.8867 Y26.3606
G01 X23.0033 Y26.2733
G01 X23.0906 Y26.1567
G01 X23.1417 Y26.0203
G01 X23.1485 Y25.9581
G01 X23.1485 Y24.3619
G01 X23.1417 Y24.2997
G01 X23.0906 Y24.1633
G01 X23.0649 Y24.1289
G01 X23.0289 Y24.0480
G01 X23.0315 Y23.9595
G01 X23.0649 Y23.8902
G01 X23.0817 Y23.8678
G01 X23.0951 Y23.8432
G01 X23.1369 Y23.7319
G01 X23.1426 Y23.7078
G01 X23.1474 Y23.6634
G01 X23.1480 Y23.6527
G01 X23.1480 Y23.1140
G01 X22.6400 Y23.1140
G01 X22.6400 Y23.6100
G01 X20.6403 Y23.6100
G01 X20.6400 Y23.6097
G01 X20.6400 Y23.1140
G01 X20.1320 Y23.1140
G01 X20.1320 Y23.6527
G01 X20.1326 Y23.6635
G01 X20.1374 Y23.7078
G01 X20.1431 Y23.7319
G01 X20.1849 Y23.8432
G01 X20.1983 Y23.8678
G01 X20.2151 Y23.8902
G01 X20.2511 Y23.9711
G01 X20.2485 Y24.0597
G01 X20.2151 Y24.1289
G01 X20.1894 Y24.1633
G01 X20.1383 Y24.2997
G01 X20.1315 Y24.3619
G01 X20.1315 Y25.9581
G01 X20.1383 Y26.0203
G01 X20.1894 Y26.1567
G01 X20.2767 Y26.2733
G01 X20.3933 Y26.3606
G01 X20.5297 Y26.4117
G01 X20.5919 Y26.4185
G01 X20.7325 Y26.4185
G01 X20.8188 Y26.4382
G01 X20.8881 Y26.4934
G01 X20.9265 Y26.5732
G01 X20.9315 Y26.6178
G01 X20.9315 Y26.6891
G01 X20.9310 Y26.7026
G01 X20.9273 Y26.7574
G01 X20.9394 Y26.8283
G01 X20.9469 Y26.8902
G01 X20.9511 Y26.9015
G01 X20.9547 Y26.9145
G01 X20.9568 Y26.9263
G01 X20.9818 Y26.9834
G01 X21.0075 Y27.0507
G01 X21.0143 Y27.0605
G01 X21.0209 Y27.0723
G01 X21.0257 Y27.0833
G01 X21.0636 Y27.1328
G01 X21.1046 Y27.1920
G01 X21.1493 Y27.2318
G01 X21.1582 Y27.2402
G01 X22.3365 Y28.4184
G01 X22.3464 Y28.4290
G01 X22.3824 Y28.4704
G01 X22.4334 Y28.5062
G01 X22.4903 Y28.5505
G01 X22.5012 Y28.5554
G01 X22.5129 Y28.5621
G01 X22.5227 Y28.5690
G01 X22.5808 Y28.5916
G01 X22.6466 Y28.6210
G01 X22.6584 Y28.6232
G01 X22.6713 Y28.6269
G01 X22.6825 Y28.6313
G01 X22.7444 Y28.6394
G01 X22.8152 Y28.6523
G01 X22.8749 Y28.6489
G01 X22.8872 Y28.6485
G01 X30.4481 Y28.6485
G01 X30.4626 Y28.6490
G01 X30.5174 Y28.6527
G01 X30.5883 Y28.6406
G01 X30.6502 Y28.6331
G01 X30.6615 Y28.6289
G01 X30.6745 Y28.6253
G01 X30.6863 Y28.6232
G01 X30.7434 Y28.5982
G01 X30.8107 Y28.5725
G01 X30.8205 Y28.5657
G01 X30.8323 Y28.5591
G01 X30.8433 Y28.5543
G01 X30.8928 Y28.5164
G01 X30.9520 Y28.4754
G01 X30.9918 Y28.4307
G01 X31.0002 Y28.4218
G01 X33.4984 Y25.9235
G01 X33.5090 Y25.9136
G01 X33.5504 Y25.8776
G01 X33.5862 Y25.8266
G01 X33.6305 Y25.7697
G01 X33.6354 Y25.7588
G01 X33.6421 Y25.7471
G01 X33.6490 Y25.7373
G01 X33.6754 Y25.6702
G01 X33.7010 Y25.6134
G01 X33.7032 Y25.6016
G01 X33.7069 Y25.5887
G01 X33.7113 Y25.5775
G01 X33.7194 Y25.5157
G01 X33.7323 Y25.4448
G01 X33.7289 Y25.3851
G01 X33.7285 Y25.3729
G01 X33.7285 Y24.2382
G01 X33.7482 Y24.1515
G01 X33.8034 Y24.0823
G01 X33.8576 Y24.0515
G01 X33.9667 Y24.0106
G01 X34.0833 Y23.9233
G01 X34.1706 Y23.8067
G01 X34.2217 Y23.6703
G01 X34.2285 Y23.6081
G01 X34.2285 Y22.1119
G01 X34.2217 Y22.0497
G01 X34.1706 Y21.9133
G01 X34.0833 Y21.7967
G01 X34.0719 Y21.7882
G01 X34.0619 Y21.7782
G01 X34.0583 Y21.7697
G01 X34.0202 Y21.7249
G01 X33.9979 Y21.6392
G01 X34.0150 Y21.5523
G01 X34.0338 Y21.5191
G01 X34.0706 Y21.4666
G01 X34.1600 Y21.2749
G01 X34.2147 Y21.0707
G01 X34.2331 Y20.8600
G01 X34.2147 Y20.6493
G01 X34.1600 Y20.4451
G01 X34.0706 Y20.2534
G01 X33.9493 Y20.0802
G01 X33.7998 Y19.9307
G01 X33.6266 Y19.8094
G01 X33.4349 Y19.7200
G01 X33.2307 Y19.6653
G01 X33.0200 Y19.6469
G01 X33.0113 Y19.6476
G01 X32.8093 Y19.6653
G01 X32.6051 Y19.7200
G01 X32.4134 Y19.8094
G01 X32.2402 Y19.9307
G01 X32.0915 Y20.0795
G01 X32.0895 Y20.0820
G01 X32.0209 Y20.1339
G01 X31.9391 Y20.1515
G01 X31.6229 Y20.1515
G01 X31.6084 Y20.1510
G01 X31.5536 Y20.1473
G01 X31.4827 Y20.1594
G01 X31.4208 Y20.1669
G01 X31.4095 Y20.1711
G01 X31.3965 Y20.1747
G01 X31.3847 Y20.1768
G01 X31.3276 Y20.2018
G01 X31.2603 Y20.2275
G01 X31.2505 Y20.2343
G01 X31.2387 Y20.2409
G01 X31.2277 Y20.2457
G01 X31.1782 Y20.2836
G01 X31.1190 Y20.3246
G01 X31.0792 Y20.3693
G01 X31.0708 Y20.3782
G01 X30.0016 Y21.4475
G01 X29.9910 Y21.4574
G01 X29.9496 Y21.4934
G01 X29.9080 Y21.5522
G01 X29.8695 Y21.6013
G01 X29.8646 Y21.6122
G01 X29.8579 Y21.6239
G01 X29.8510 Y21.6337
G01 X29.8324 Y21.6815
G01 X29.7827 Y21.7547
G01 X29.7061 Y21.7992
G01 X29.6175 Y21.8059
G01 X29.5353 Y21.7738
G01 X29.4749 Y21.7091
G01 X29.4486 Y21.6245
G01 X29.4480 Y21.6094
G01 X29.4480 Y20.9173
G01 X29.4474 Y20.9065
G01 X29.4426 Y20.8622
G01 X29.4369 Y20.8381
G01 X29.3951 Y20.7268
G01 X29.3817 Y20.7022
G01 X29.3114 Y20.6084
G01 X29.2916 Y20.5886
G01 X29.1978 Y20.5183
G01 X29.1732 Y20.5049
G01 X29.0619 Y20.4631
G01 X29.0378 Y20.4574
G01 X28.9934 Y20.4526
G01 X28.9827 Y20.4520
G01 X28.1940 Y20.4520
G01 X28.1940 Y20.9600
G01 X28.9400 Y20.9600
G01 X28.9400 Y24.7597
G01 X28.9397 Y24.7600
G01 X28.1940 Y24.7600
G01 X28.1940 Y25.2680
G01 X28.9827 Y25.2680
G01 X28.9935 Y25.2674
G01 X29.0378 Y25.2626
G01 X29.0619 Y25.2569
G01 X29.1732 Y25.2151
G01 X29.1978 Y25.2017
G01 X29.2916 Y25.1314
G01 X29.3114 Y25.1116
G01 X29.3817 Y25.0178
G01 X29.3980 Y24.9881
G01 X29.4567 Y24.9218
G01 X29.5384 Y24.8876
G01 X29.6265 Y24.8922
G01 X29.7045 Y24.9347
G01 X29.7560 Y25.0068
G01 X29.7715 Y25.0836
G01 X29.7715 Y25.5321
G01 X29.7518 Y25.6184
G01 X29.7132 Y25.6728
G01 X29.4828 Y25.9032
G01 X29.4078 Y25.9503
G01 X29.3424 Y25.9614
G01 X26.5383 Y25.9615
G01 X26.4516 Y25.9418
G01 X26.3969 Y25.9030
G01 X25.4050 Y24.9111
G01 X25.3577 Y24.8358
G01 X25.3465 Y24.7701
G01 X25.3465 Y22.8919
G01 X25.3470 Y22.8774
G01 X25.3507 Y22.8226
G01 X25.3386 Y22.7517
G01 X25.3311 Y22.6898
G01 X25.3269 Y22.6785
G01 X25.3233 Y22.6655
G01 X25.3212 Y22.6537
G01 X25.2962 Y22.5966
G01 X25.2705 Y22.5293
G01 X25.2637 Y22.5195
G01 X25.2571 Y22.5077
G01 X25.2523 Y22.4967
G01 X25.2144 Y22.4472
G01 X25.1734 Y22.3880
G01 X25.1287 Y22.3482
G01 X25.1198 Y22.3398
G01 X23.2068 Y20.4268
G01 X23.1597 Y20.3518
G01 X23.1485 Y20.2861
G01 X23.1485 Y19.7619
G01 X23.1417 Y19.6997
G01 X23.0906 Y19.5633
G01 X23.0033 Y19.4467
G01 X22.8867 Y19.3594
G01 X22.7503 Y19.3083
G01 X22.6881 Y19.3015
G01 X20.5919 Y19.3015
G01 X20.5297 Y19.3083
G01 X20.3933 Y19.3594
G01 X20.2767 Y19.4467
G01 X20.1894 Y19.5633
G01 X20.1383 Y19.6997
G01 X20.1315 Y19.7619
G01 X20.1315 Y21.3581
G01 X20.1383 Y21.4203
G01 X20.1894 Y21.5567
G01 X20.2151 Y21.5911
G01 X20.2511 Y21.6720
G01 X20.2485 Y21.7605
G01 X20.2151 Y21.8298
G01 X20.1983 Y21.8522
G01 X20.1849 Y21.8768
G00 Z2.0000
G00 X22.6483 Y21.4229
G01 F60.00
G01 Z-0.0501
G01 F120.00
G01 X22.6594 Y21.4215
G01 X22.6675 Y21.4198
G01 X22.6781 Y21.4166
G01 X22.6884 Y21.4123
G01 X22.6982 Y21.4071
G01 X22.7074 Y21.4009
G01 X22.7160 Y21.3939
G01 X22.7225 Y21.3875
G01 X24.3247 Y22.9898
G01 X24.3247 Y25.1463
G01 X24.3262 Y25.1767
G01 X24.3307 Y25.2071
G01 X24.3382 Y25.2369
G01 X24.3485 Y25.2659
G01 X24.3617 Y25.2937
G01 X24.3775 Y25.3201
G01 X24.3958 Y25.3448
G01 X24.4162 Y25.3673
G01 X25.9407 Y26.8918
G01 X25.9593 Y26.9088
G01 X25.9654 Y26.9139
G01 X25.9879 Y26.9305
G01 X26.0143 Y26.9463
G01 X26.0421 Y26.9595
G01 X26.0661 Y26.9682
G01 X26.0761 Y26.9712
G01 X26.1036 Y26.9778
G01 X26.1313 Y26.9818
G01 X26.1592 Y26.9833
G01 X29.7183 Y26.9833
G01 X29.7435 Y26.9822
G01 X29.7539 Y26.9812
G01 X29.7764 Y26.9778
G01 X29.7842 Y26.9761
G01 X29.8089 Y26.9698
G01 X29.8330 Y26.9613
G01 X29.8404 Y26.9584
G01 X29.8657 Y26.9463
G01 X29.8921 Y26.9305
G01 X29.9168 Y26.9122
G01 X29.9376 Y26.8935
G01 X30.7051 Y26.1258
G01 X30.7222 Y26.1068
G01 X30.7375 Y26.0863
G01 X30.7433 Y26.0777
G01 X30.7563 Y26.0557
G01 X30.7673 Y26.0327
G01 X30.7713 Y26.0230
G01 X30.7798 Y25.9989
G01 X30.7867 Y25.9718
G01 X30.7882 Y25.9640
G01 X30.7918 Y25.9387
G01 X30.7933 Y25.9083
G01 X30.7933 Y22.1008
G01 X31.7208 Y21.1733
G01 X32.2696 Y21.1733
G01 X32.3028 Y21.2433
G01 X32.3411 Y21.3074
G01 X32.3468 Y21.3161
G01 X32.3914 Y21.3759
G01 X32.4414 Y21.4313
G01 X32.4487 Y21.4386
G01 X32.5002 Y21.4852
G01 X32.5082 Y21.4918
G01 X32.5682 Y21.5362
G01 X32.6367 Y21.5772
G01 X32.7088 Y21.6113
G01 X32.7790 Y21.6366
G01 X32.7866 Y21.6390
G01 X32.8614 Y21.6576
G01 X32.9403 Y21.6693
G01 X33.0200 Y21.6732
G01 X33.0945 Y21.6697
G01 X33.1049 Y21.6687
G01 X33.1735 Y21.6585
G01 X33.1837 Y21.6564
G01 X33.2561 Y21.6382
G01 X33.3263 Y21.6132
G01 X33.3338 Y21.6102
G01 X33.4033 Y21.5772
G01 X33.4674 Y21.5389
G01 X33.4761 Y21.5332
G01 X33.5359 Y21.4886
G01 X33.5950 Y21.4350
G01 X33.6452 Y21.3798
G01 X33.6518 Y21.3718
G01 X33.6932 Y21.3161
G01 X33.6989 Y21.3074
G01 X33.7372 Y21.2433
G01 X33.7713 Y21.1712
G01 X33.7982 Y21.0961
G01 X33.8164 Y21.0237
G01 X33.8185 Y21.0135
G01 X33.8287 Y20.9449
G01 X33.8297 Y20.9345
G01 X33.8332 Y20.8600
G01 X33.8297 Y20.7855
G01 X33.8287 Y20.7751
G01 X33.8176 Y20.7014
G01 X33.7982 Y20.6239
G01 X33.7713 Y20.5488
G01 X33.7395 Y20.4813
G01 X33.7346 Y20.4721
G01 X33.6989 Y20.4126
G01 X33.6932 Y20.4039
G01 X33.6486 Y20.3441
G01 X33.5986 Y20.2887
G01 X33.5913 Y20.2814
G01 X33.5359 Y20.2314
G01 X33.4718 Y20.1838
G01 X33.4033 Y20.1428
G01 X33.3312 Y20.1087
G01 X33.2561 Y20.0818
G01 X33.1837 Y20.0636
G01 X33.1735 Y20.0615
G01 X33.0997 Y20.0507
G01 X33.0252 Y20.0469
G01 X33.0148 Y20.0469
G01 X32.9455 Y20.0503
G01 X32.9351 Y20.0513
G01 X32.8614 Y20.0624
G01 X32.7866 Y20.0810
G01 X32.7790 Y20.0834
G01 X32.7088 Y20.1087
G01 X32.6367 Y20.1428
G01 X32.5682 Y20.1838
G01 X32.5082 Y20.2282
G01 X32.5002 Y20.2348
G01 X32.4450 Y20.2850
G01 X32.3948 Y20.3402
G01 X32.3882 Y20.3482
G01 X32.3468 Y20.4039
G01 X32.3411 Y20.4126
G01 X32.3028 Y20.4767
G01 X32.2696 Y20.5467
G01 X31.5907 Y20.5467
G01 X31.5631 Y20.5480
G01 X31.5551 Y20.5488
G01 X31.5299 Y20.5527
G01 X31.5051 Y20.5588
G01 X31.4951 Y20.5618
G01 X31.4711 Y20.5705
G01 X31.4480 Y20.5813
G01 X31.4388 Y20.5863
G01 X31.4169 Y20.5995
G01 X31.3922 Y20.6178
G01 X31.3697 Y20.6382
G01 X30.2582 Y21.7497
G01 X30.2412 Y21.7683
G01 X30.2361 Y21.7744
G01 X30.2195 Y21.7969
G01 X30.2037 Y21.8233
G01 X30.1905 Y21.8511
G01 X30.1818 Y21.8751
G01 X30.1788 Y21.8851
G01 X30.1722 Y21.9126
G01 X30.1682 Y21.9403
G01 X30.1667 Y21.9682
G01 X30.1667 Y25.7782
G01 X29.5882 Y26.3567
G01 X26.2918 Y26.3567
G01 X24.9513 Y25.0162
G01 X24.9513 Y22.8597
G01 X24.9498 Y22.8293
G01 X24.9453 Y22.7989
G01 X24.9378 Y22.7691
G01 X24.9275 Y22.7401
G01 X24.9143 Y22.7123
G01 X24.8985 Y22.6859
G01 X24.8802 Y22.6612
G01 X24.8598 Y22.6387
G01 X22.7532 Y20.5321
G01 X22.7532 Y19.8072
G01 X22.7524 Y19.7961
G01 X22.7510 Y19.7879
G01 X22.7491 Y19.7798
G01 X22.7456 Y19.7693
G01 X22.7423 Y19.7616
G01 X22.7371 Y19.7518
G01 X22.7326 Y19.7448
G01 X22.7257 Y19.7361
G01 X22.7181 Y19.7280
G01 X22.7096 Y19.7208
G01 X22.7006 Y19.7144
G01 X22.6884 Y19.7077
G01 X22.6781 Y19.7034
G01 X22.6648 Y19.6995
G01 X22.6539 Y19.6976
G01 X22.6428 Y19.6968
G01 X20.6397 Y19.6968
G01 X20.6261 Y19.6976
G01 X20.6152 Y19.6995
G01 X20.6019 Y19.7034
G01 X20.5916 Y19.7077
G01 X20.5818 Y19.7129
G01 X20.5704 Y19.7208
G01 X20.5619 Y19.7280
G01 X20.5525 Y19.7382
G01 X20.5474 Y19.7448
G01 X20.5415 Y19.7542
G01 X20.5377 Y19.7616
G01 X20.5344 Y19.7693
G01 X20.5317 Y19.7771
G01 X20.5290 Y19.7879
G01 X20.5276 Y19.7961
G01 X20.5268 Y19.8072
G01 X20.5268 Y21.3103
G01 X20.5276 Y21.3239
G01 X20.5295 Y21.3348
G01 X20.5334 Y21.3481
G01 X20.5377 Y21.3584
G01 X20.5444 Y21.3706
G01 X20.5508 Y21.3796
G01 X20.5580 Y21.3881
G01 X20.5682 Y21.3975
G01 X20.5748 Y21.4026
G01 X20.5842 Y21.4085
G01 X20.5941 Y21.4135
G01 X20.6019 Y21.4166
G01 X20.6125 Y21.4198
G01 X20.6206 Y21.4215
G01 X20.6289 Y21.4227
G01 X20.6397 Y21.4232
G01 X22.6403 Y21.4232
G01 X22.6483 Y21.4229
G00 Z2.0000
G00 X26.4849 Y20.7268
G01 F60.00
G01 Z-0.0501
G01 F120.00
G01 X26.4431 Y20.8381
G01 X26.4374 Y20.8622
G01 X26.4326 Y20.9066
G01 X26.4320 Y20.9173
G01 X26.4320 Y22.6060
G01 X26.9400 Y22.6060
G01 X26.9400 Y20.9600
G01 X27.6860 Y20.9600
G01 X27.6860 Y20.4520
G01 X26.8973 Y20.4520
G01 X26.8865 Y20.4526
G01 X26.8422 Y20.4574
G01 X26.8181 Y20.4631
G01 X26.7068 Y20.5049
G01 X26.6822 Y20.5183
G01 X26.5884 Y20.5886
G01 X26.5686 Y20.6084
G01 X26.4983 Y20.7022
G01 X26.4849 Y20.7268
G00 Z2.0000
G00 X26.9400 Y24.7600
G01 F60.00
G01 Z-0.0501
G01 F120.00
G01 X26.9400 Y23.1140
G01 X26.4320 Y23.1140
G01 X26.4320 Y24.8027
G01 X26.4326 Y24.8135
G01 X26.4374 Y24.8578
G01 X26.4431 Y24.8819
G01 X26.4849 Y24.9932
G01 X26.4983 Y25.0178
G01 X26.5686 Y25.1116
G01 X26.5884 Y25.1314
G01 X26.6822 Y25.2017
G01 X26.7068 Y25.2151
G01 X26.8181 Y25.2569
G01 X26.8422 Y25.2626
G01 X26.8866 Y25.2674
G01 X26.8973 Y25.2680
G01 X27.6860 Y25.2680
G01 X27.6860 Y24.7600
G01 X26.9400 Y24.7600
G00 Z2.0000
G00 X21.3268 Y26.7252
G01 F60.00
G01 Z-0.0501
G01 F120.00
G01 X21.3282 Y26.7507
G01 X21.3327 Y26.7811
G01 X21.3402 Y26.8109
G01 X21.3505 Y26.8399
G01 X21.3637 Y26.8677
G01 X21.3795 Y26.8941
G01 X21.3978 Y26.9188
G01 X21.4165 Y26.9396
G01 X22.6404 Y28.1635
G01 X22.6612 Y28.1822
G01 X22.6817 Y28.1975
G01 X22.6903 Y28.2033
G01 X22.7123 Y28.2163
G01 X22.7401 Y28.2295
G01 X22.7641 Y28.2382
G01 X22.7741 Y28.2412
G01 X22.8016 Y28.2478
G01 X22.8293 Y28.2518
G01 X22.8597 Y28.2533
G01 X30.4803 Y28.2533
G01 X30.5107 Y28.2518
G01 X30.5411 Y28.2473
G01 X30.5709 Y28.2398
G01 X30.5950 Y28.2313
G01 X30.6047 Y28.2273
G01 X30.6277 Y28.2163
G01 X30.6541 Y28.2005
G01 X30.6788 Y28.1822
G01 X30.7013 Y28.1618
G01 X33.2418 Y25.6213
G01 X33.2622 Y25.5988
G01 X33.2775 Y25.5783
G01 X33.2833 Y25.5697
G01 X33.2963 Y25.5477
G01 X33.3095 Y25.5199
G01 X33.3182 Y25.4959
G01 X33.3212 Y25.4859
G01 X33.3273 Y25.4611
G01 X33.3312 Y25.4359
G01 X33.3320 Y25.4279
G01 X33.3333 Y25.4028
G01 X33.3333 Y23.6732
G01 X33.7203 Y23.6732
G01 X33.7283 Y23.6729
G01 X33.7366 Y23.6720
G01 X33.7448 Y23.6705
G01 X33.7529 Y23.6683
G01 X33.7607 Y23.6656
G01 X33.7684 Y23.6623
G01 X33.7758 Y23.6585
G01 X33.7829 Y23.6541
G01 X33.7939 Y23.6457
G01 X33.8039 Y23.6360
G01 X33.8092 Y23.6296
G01 X33.8141 Y23.6229
G01 X33.8185 Y23.6158
G01 X33.8223 Y23.6084
G01 X33.8275 Y23.5955
G01 X33.8298 Y23.5875
G01 X33.8315 Y23.5794
G01 X33.8327 Y23.5711
G01 X33.8332 Y23.5603
G01 X33.8332 Y22.1597
G01 X33.8327 Y22.1489
G01 X33.8315 Y22.1406
G01 X33.8291 Y22.1298
G01 X33.8266 Y22.1219
G01 X33.8223 Y22.1116
G01 X33.8185 Y22.1042
G01 X33.8141 Y22.0971
G01 X33.8092 Y22.0904
G01 X33.8039 Y22.0840
G01 X33.7981 Y22.0780
G01 X33.7918 Y22.0725
G01 X33.7852 Y22.0674
G01 X33.7782 Y22.0629
G01 X33.7709 Y22.0589
G01 X33.7633 Y22.0554
G01 X33.7555 Y22.0525
G01 X33.7475 Y22.0502
G01 X33.7394 Y22.0485
G01 X33.7311 Y22.0473
G01 X33.7228 Y22.0468
G01 X32.3172 Y22.0468
G01 X32.3034 Y22.0480
G01 X32.2898 Y22.0509
G01 X32.2767 Y22.0554
G01 X32.2642 Y22.0615
G01 X32.2526 Y22.0691
G01 X32.2419 Y22.0780
G01 X32.2325 Y22.0882
G01 X32.2244 Y22.0994
G01 X32.2202 Y22.1066
G01 X32.2165 Y22.1141
G01 X32.2117 Y22.1271
G01 X32.2095 Y22.1352
G01 X32.2080 Y22.1434
G01 X32.2071 Y22.1517
G01 X32.2068 Y22.1597
G01 X32.2068 Y23.5603
G01 X32.2071 Y23.5683
G01 X32.2080 Y23.5766
G01 X32.2095 Y23.5848
G01 X32.2117 Y23.5929
G01 X32.2144 Y23.6007
G01 X32.2177 Y23.6084
G01 X32.2244 Y23.6206
G01 X32.2325 Y23.6318
G01 X32.2380 Y23.6381
G01 X32.2440 Y23.6439
G01 X32.2504 Y23.6492
G01 X32.2571 Y23.6541
G01 X32.2691 Y23.6611
G01 X32.2767 Y23.6646
G01 X32.2845 Y23.6675
G01 X32.2925 Y23.6698
G01 X32.3006 Y23.6715
G01 X32.3089 Y23.6727
G01 X32.3197 Y23.6732
G01 X32.7067 Y23.6732
G01 X32.7067 Y25.2702
G01 X30.3502 Y27.6267
G01 X22.9898 Y27.6267
G01 X21.9533 Y26.5902
G01 X21.9533 Y26.0232
G01 X22.6403 Y26.0232
G01 X22.6511 Y26.0227
G01 X22.6594 Y26.0215
G01 X22.6675 Y26.0198
G01 X22.6755 Y26.0175
G01 X22.6833 Y26.0146
G01 X22.6909 Y26.0111
G01 X22.6982 Y26.0071
G01 X22.7052 Y26.0026
G01 X22.7118 Y25.9975
G01 X22.7181 Y25.9920
G01 X22.7239 Y25.9860
G01 X22.7292 Y25.9796
G01 X22.7341 Y25.9729
G01 X22.7385 Y25.9658
G01 X22.7423 Y25.9584
G01 X22.7456 Y25.9507
G01 X22.7483 Y25.9429
G01 X22.7505 Y25.9348
G01 X22.7520 Y25.9266
G01 X22.7529 Y25.9183
G01 X22.7532 Y25.9103
G01 X22.7531 Y24.4044
G01 X22.7520 Y24.3934
G01 X22.7505 Y24.3852
G01 X22.7483 Y24.3771
G01 X22.7446 Y24.3667
G01 X22.7411 Y24.3591
G01 X22.7356 Y24.3494
G01 X22.7292 Y24.3404
G01 X22.7220 Y24.3319
G01 X22.7160 Y24.3261
G01 X22.7074 Y24.3191
G01 X22.6982 Y24.3129
G01 X22.6884 Y24.3077
G01 X22.6807 Y24.3044
G01 X22.6702 Y24.3009
G01 X22.6621 Y24.2990
G01 X22.6511 Y24.2973
G01 X22.6403 Y24.2968
G01 X20.6372 Y24.2968
G01 X20.6289 Y24.2973
G01 X20.6206 Y24.2985
G01 X20.6071 Y24.3017
G01 X20.5941 Y24.3065
G01 X20.5866 Y24.3102
G01 X20.5794 Y24.3144
G01 X20.5682 Y24.3225
G01 X20.5580 Y24.3319
G01 X20.5525 Y24.3382
G01 X20.5474 Y24.3448
G01 X20.5402 Y24.3566
G01 X20.5344 Y24.3693
G01 X20.5302 Y24.3825
G01 X20.5276 Y24.3961
G01 X20.5268 Y24.4097
G01 X20.5268 Y25.9103
G01 X20.5273 Y25.9211
G01 X20.5285 Y25.9294
G01 X20.5302 Y25.9375
G01 X20.5325 Y25.9455
G01 X20.5354 Y25.9533
G01 X20.5389 Y25.9609
G01 X20.5429 Y25.9682
G01 X20.5474 Y25.9752
G01 X20.5525 Y25.9818
G01 X20.5580 Y25.9881
G01 X20.5682 Y25.9975
G01 X20.5748 Y26.0026
G01 X20.5818 Y26.0071
G01 X20.5891 Y26.0111
G01 X20.5967 Y26.0146
G01 X20.6045 Y26.0175
G01 X20.6125 Y26.0198
G01 X20.6206 Y26.0215
G01 X20.6289 Y26.0227
G01 X20.6397 Y26.0232
G01 X21.3267 Y26.0232
G01 X21.3268 Y26.7252
G00 Z2.0000
G00 X20.0139 Y15.9791
G01 F60.00
G01 Z-0.0501
G01 F120.00
G01 X19.9638 Y15.9554
G01 X19.5921 Y16.3271
G01 X19.6564 Y16.3721
G01 X19.6714 Y16.3808
G01 X19.8630 Y16.4701
G01 X19.8793 Y16.4761
G01 X20.0836 Y16.5308
G01 X20.1007 Y16.5338
G01 X20.3113 Y16.5522
G01 X20.3287 Y16.5522
G01 X20.5393 Y16.5338
G01 X20.5564 Y16.5308
G01 X20.7607 Y16.4761
G01 X20.7770 Y16.4701
G01 X20.9686 Y16.3808
G01 X20.9836 Y16.3721
G01 X21.0479 Y16.3271
G01 X20.6762 Y15.9554
G01 X20.6261 Y15.9791
G01 X20.5526 Y16.0054
G01 X20.4761 Y16.0246
G01 X20.3984 Y16.0361
G01 X20.3200 Y16.0400
G01 X20.2416 Y16.0361
G01 X20.1639 Y16.0246
G01 X20.0878 Y16.0055
G01 X20.0139 Y15.9791
G00 Z2.0000
G00 X20.0139 Y14.5009
G01 F60.00
G01 Z-0.0501
G01 F120.00
G01 X20.0878 Y14.4745
G01 X20.1639 Y14.4554
G01 X20.2416 Y14.4439
G01 X20.3200 Y14.4400
G01 X20.3984 Y14.4439
G01 X20.4761 Y14.4554
G01 X20.5526 Y14.4746
G01 X20.6261 Y14.5009
G01 X20.6762 Y14.5246
G01 X21.0479 Y14.1529
G01 X20.9836 Y14.1079
G01 X20.9686 Y14.0992
G01 X20.7770 Y14.0099
G01 X20.7607 Y14.0039
G01 X20.5564 Y13.9492
G01 X20.5393 Y13.9462
G01 X20.3287 Y13.9278
G01 X20.3113 Y13.9278
G01 X20.1007 Y13.9462
G01 X20.0836 Y13.9492
G01 X19.8793 Y14.0039
G01 X19.8630 Y14.0099
G01 X19.6714 Y14.0992
G01 X19.6564 Y14.1079
G01 X19.5921 Y14.1529
G01 X19.9638 Y14.5246
G01 X20.0139 Y14.5009
G00 Z2.0000
G00 X19.0899 Y14.7830
G01 F60.00
G01 Z-0.0501
G01 F120.00
G01 X19.0839 Y14.7993
G01 X19.0292 Y15.0036
G01 X19.0262 Y15.0207
G01 X19.0078 Y15.2313
G01 X19.0078 Y15.2487
G01 X19.0262 Y15.4593
G01 X19.0292 Y15.4764
G01 X19.0839 Y15.6807
G01 X19.0899 Y15.6970
G01 X19.1792 Y15.8886
G01 X19.1879 Y15.9036
G01 X19.2329 Y15.9679
G01 X19.6046 Y15.5962
G01 X19.5809 Y15.5461
G01 X19.5546 Y15.4726
G01 X19.5354 Y15.3961
G01 X19.5239 Y15.3184
G01 X19.5200 Y15.2400
G01 X19.5239 Y15.1616
G01 X19.5354 Y15.0839
G01 X19.5546 Y15.0074
G01 X19.5809 Y14.9339
G01 X19.6046 Y14.8838
G01 X19.2329 Y14.5121
G01 X19.1879 Y14.5764
G01 X19.1792 Y14.5914
G01 X19.0899 Y14.7830
G00 Z2.0000
G00 X21.0591 Y14.9339
G01 F60.00
G01 Z-0.0501
G01 F120.00
G01 X21.0855 Y15.0078
G01 X21.1046 Y15.0839
G01 X21.1161 Y15.1616
G01 X21.1200 Y15.2400
G01 X21.1161 Y15.3184
G01 X21.1046 Y15.3961
G01 X21.0854 Y15.4726
G01 X21.0591 Y15.5461
G01 X21.0354 Y15.5962
G01 X21.4071 Y15.9679
G01 X21.4521 Y15.9036
G01 X21.4608 Y15.8886
G01 X21.5501 Y15.6970
G01 X21.5561 Y15.6807
G01 X21.6108 Y15.4764
G01 X21.6138 Y15.4593
G01 X21.6322 Y15.2487
G01 X21.6322 Y15.2313
G01 X21.6138 Y15.0207
G01 X21.6108 Y15.0036
G01 X21.5561 Y14.7993
G01 X21.5501 Y14.7830
G01 X21.4608 Y14.5914
G01 X21.4521 Y14.5764
G01 X21.4071 Y14.5121
G01 X21.0354 Y14.8838
G01 X21.0591 Y14.9339
G00 Z2.0000
G00 X24.0692 Y15.4764
G01 F60.00
G01 Z-0.0501
G01 F120.00
G01 X24.1239 Y15.6807
G01 X24.1299 Y15.6970
G01 X24.2192 Y15.8886
G01 X24.2279 Y15.9036
G01 X24.2729 Y15.9679
G01 X24.6446 Y15.5962
G01 X24.6209 Y15.5461
G01 X24.5946 Y15.4726
G01 X24.5754 Y15.3961
G01 X24.5639 Y15.3184
G01 X24.5600 Y15.2400
G01 X24.5639 Y15.1616
G01 X24.5754 Y15.0839
G01 X24.5946 Y15.0074
G01 X24.6209 Y14.9339
G01 X24.6446 Y14.8838
G01 X24.2729 Y14.5121
G01 X24.2279 Y14.5764
G01 X24.2192 Y14.5914
G01 X24.1299 Y14.7830
G01 X24.1239 Y14.7993
G01 X24.0692 Y15.0036
G01 X24.0662 Y15.0207
G01 X24.0478 Y15.2313
G01 X24.0478 Y15.2487
G01 X24.0662 Y15.4593
G01 X24.0692 Y15.4764
G00 Z2.0000
G00 X25.0539 Y15.9791
G01 F60.00
G01 Z-0.0501
G01 F120.00
G01 X25.0038 Y15.9554
G01 X24.6321 Y16.3271
G01 X24.6964 Y16.3721
G01 X24.7114 Y16.3808
G01 X24.9030 Y16.4701
G01 X24.9193 Y16.4761
G01 X25.1236 Y16.5308
G01 X25.1407 Y16.5338
G01 X25.3513 Y16.5522
G01 X25.3687 Y16.5522
G01 X25.5793 Y16.5338
G01 X25.5964 Y16.5308
G01 X25.8007 Y16.4761
G01 X25.8170 Y16.4701
G01 X26.0086 Y16.3808
G01 X26.0236 Y16.3721
G01 X26.0879 Y16.3271
G01 X25.7162 Y15.9554
G01 X25.6661 Y15.9791
G01 X25.5926 Y16.0054
G01 X25.5161 Y16.0246
G01 X25.4384 Y16.0361
G01 X25.3600 Y16.0400
G01 X25.2816 Y16.0361
G01 X25.2039 Y16.0246
G01 X25.1278 Y16.0055
G01 X25.0539 Y15.9791
G00 Z2.0000
G00 X26.0991 Y14.9339
G01 F60.00
G01 Z-0.0501
G01 F120.00
G01 X26.1255 Y15.0078
G01 X26.1446 Y15.0839
G01 X26.1561 Y15.1616
G01 X26.1600 Y15.2400
G01 X26.1561 Y15.3184
G01 X26.1446 Y15.3961
G01 X26.1254 Y15.4726
G01 X26.0991 Y15.5461
G01 X26.0754 Y15.5962
G01 X26.4471 Y15.9679
G01 X26.4921 Y15.9036
G01 X26.5008 Y15.8886
G01 X26.5901 Y15.6970
G01 X26.5961 Y15.6807
G01 X26.6508 Y15.4764
G01 X26.6538 Y15.4593
G01 X26.6722 Y15.2487
G01 X26.6722 Y15.2313
G01 X26.6538 Y15.0207
G01 X26.6508 Y15.0036
G01 X26.5961 Y14.7993
G01 X26.5901 Y14.7830
G01 X26.5008 Y14.5914
G01 X26.4921 Y14.5764
G01 X26.4471 Y14.5121
G01 X26.0754 Y14.8838
G01 X26.0991 Y14.9339
G00 Z2.0000
G00 X26.2685 Y12.6477
G01 F60.00
G01 Z-0.0501
G01 F120.00
G01 X26.2557 Y12.5618
G01 X26.2339 Y12.4749
G01 X26.2037 Y12.3905
G01 X26.1654 Y12.3095
G01 X26.1193 Y12.2327
G01 X26.0659 Y12.1607
G01 X26.0057 Y12.0943
G01 X25.9393 Y12.0341
G01 X25.8673 Y11.9807
G01 X25.7905 Y11.9346
G01 X25.7095 Y11.8963
G01 X25.6251 Y11.8661
G01 X25.5382 Y11.8443
G01 X25.4495 Y11.8312
G01 X25.3600 Y11.8268
G01 X25.2705 Y11.8312
G01 X25.1818 Y11.8443
G01 X25.0949 Y11.8661
G01 X25.0105 Y11.8963
G01 X24.9295 Y11.9346
G01 X24.8527 Y11.9807
G01 X24.7807 Y12.0341
G01 X24.7143 Y12.0943
G01 X24.6541 Y12.1607
G01 X24.6007 Y12.2327
G01 X24.5546 Y12.3095
G01 X24.5163 Y12.3905
G01 X24.4861 Y12.4749
G01 X24.4643 Y12.5618
G01 X24.4512 Y12.6505
G01 X24.4468 Y12.7400
G01 X24.4512 Y12.8295
G01 X24.4643 Y12.9182
G01 X24.4861 Y13.0051
G01 X24.5163 Y13.0895
G01 X24.5546 Y13.1705
G01 X24.6007 Y13.2473
G01 X24.6541 Y13.3193
G01 X24.7143 Y13.3857
G01 X24.7807 Y13.4459
G01 X24.8527 Y13.4993
G01 X24.9295 Y13.5454
G01 X25.0105 Y13.5837
G01 X25.0949 Y13.6139
G01 X25.1818 Y13.6357
G01 X25.2705 Y13.6488
G01 X25.3600 Y13.6532
G01 X25.4495 Y13.6488
G01 X25.5382 Y13.6357
G01 X25.6251 Y13.6139
G01 X25.7095 Y13.5837
G01 X25.7905 Y13.5454
G01 X25.8673 Y13.4993
G01 X25.9393 Y13.4459
G01 X26.0057 Y13.3857
G01 X26.0659 Y13.3193
G01 X26.1193 Y13.2473
G01 X26.1654 Y13.1705
G01 X26.2037 Y13.0895
G01 X26.2339 Y13.0051
G01 X26.2557 Y12.9182
G01 X26.2688 Y12.8295
G01 X26.2732 Y12.7400
G01 X26.2692 Y12.6557
G01 X26.2685 Y12.6477
G00 Z2.0000
G00 X24.0657 Y12.5209
G01 F60.00
G01 Z-0.0501
G01 F120.00
G01 X24.0465 Y12.7400
G01 X24.0665 Y12.9681
G01 X24.1257 Y13.1892
G01 X24.2225 Y13.3967
G01 X24.3538 Y13.5843
G01 X24.5157 Y13.7462
G01 X24.6316 Y13.8274
G01 X24.6911 Y13.8931
G01 X24.7161 Y13.9780
G01 X24.7018 Y14.0654
G01 X24.6412 Y14.1620
G01 X25.0038 Y14.5246
G01 X25.0539 Y14.5009
G01 X25.1274 Y14.4746
G01 X25.2039 Y14.4554
G01 X25.2816 Y14.4439
G01 X25.3600 Y14.4400
G01 X25.4384 Y14.4439
G01 X25.5161 Y14.4554
G01 X25.5926 Y14.4746
G01 X25.6661 Y14.5009
G01 X25.7162 Y14.5246
G01 X26.0788 Y14.1620
G01 X26.0131 Y14.0514
G01 X26.0054 Y13.9632
G01 X26.0367 Y13.8803
G01 X26.0884 Y13.8274
G01 X26.2043 Y13.7462
G01 X26.3662 Y13.5843
G01 X26.4975 Y13.3967
G01 X26.5943 Y13.1892
G01 X26.6535 Y12.9681
G01 X26.6735 Y12.7400
G01 X26.6535 Y12.5119
G01 X26.5943 Y12.2908
G01 X26.4975 Y12.0833
G01 X26.3662 Y11.8957
G01 X26.2043 Y11.7338
G01 X26.0167 Y11.6025
G01 X25.8092 Y11.5057
G01 X25.5881 Y11.4465
G01 X25.3600 Y11.4265
G01 X25.1319 Y11.4465
G01 X25.1235 Y11.4487
G01 X24.9108 Y11.5057
G01 X24.7033 Y11.6025
G01 X24.5157 Y11.7338
G01 X24.3538 Y11.8957
G01 X24.2225 Y12.0833
G01 X24.1257 Y12.2908
G01 X24.0665 Y12.5119
G01 X24.0657 Y12.5209
G00 Z2.0000
G00 X29.3249 Y14.3068
G01 F60.00
G01 Z-0.0501
G01 F120.00
G01 X29.2831 Y14.4181
G01 X29.2774 Y14.4422
G01 X29.2726 Y14.4866
G01 X29.2720 Y14.4973
G01 X29.2720 Y14.9860
G01 X29.7800 Y14.9860
G01 X29.7800 Y14.5400
G01 X31.1797 Y14.5400
G01 X31.1800 Y14.5403
G01 X31.1800 Y14.9860
G01 X31.6880 Y14.9860
G01 X31.6880 Y14.4973
G01 X31.6874 Y14.4865
G01 X31.6826 Y14.4422
G01 X31.6769 Y14.4181
G01 X31.6351 Y14.3068
G01 X31.6217 Y14.2822
G01 X31.5514 Y14.1884
G01 X31.5215 Y14.1586
G01 X31.5179 Y14.1501
G01 X31.4799 Y14.1053
G01 X31.4577 Y14.0196
G01 X31.4748 Y13.9327
G01 X31.4936 Y13.8995
G01 X31.5306 Y13.8466
G01 X31.6200 Y13.6549
G01 X31.6747 Y13.4507
G01 X31.6931 Y13.2400
G01 X31.6747 Y13.0293
G01 X31.6200 Y12.8251
G01 X31.5306 Y12.6334
G01 X31.4093 Y12.4602
G01 X31.2598 Y12.3107
G01 X31.0866 Y12.1894
G01 X30.8949 Y12.1000
G01 X30.6907 Y12.0453
G01 X30.6817 Y12.0445
G01 X30.4800 Y12.0269
G01 X30.2693 Y12.0453
G01 X30.0651 Y12.1000
G01 X29.8734 Y12.1894
G01 X29.7002 Y12.3107
G01 X29.5507 Y12.4602
G01 X29.4294 Y12.6334
G01 X29.3400 Y12.8251
G01 X29.2853 Y13.0293
G01 X29.2669 Y13.2400
G01 X29.2853 Y13.4507
G01 X29.3400 Y13.6549
G01 X29.4294 Y13.8466
G01 X29.4664 Y13.8995
G01 X29.4998 Y13.9815
G01 X29.4943 Y14.0699
G01 X29.4510 Y14.1471
G01 X29.4388 Y14.1582
G01 X29.4086 Y14.1884
G01 X29.3383 Y14.2822
G01 X29.3249 Y14.3068
G00 Z2.0000
G00 X29.7800 Y15.9400
G01 F60.00
G01 Z-0.0501
G01 F120.00
G01 X29.7800 Y15.4940
G01 X29.2720 Y15.4940
G01 X29.2720 Y15.9827
G01 X29.2726 Y15.9935
G01 X29.2774 Y16.0378
G01 X29.2831 Y16.0619
G01 X29.3249 Y16.1732
G01 X29.3383 Y16.1978
G01 X29.4086 Y16.2916
G01 X29.4284 Y16.3114
G01 X29.5222 Y16.3817
G01 X29.5468 Y16.3951
G01 X29.6581 Y16.4369
G01 X29.6822 Y16.4426
G01 X29.7266 Y16.4474
G01 X29.7373 Y16.4480
G01 X30.2260 Y16.4480
G01 X30.2260 Y15.9400
G01 X29.7800 Y15.9400
G00 Z2.0000
G00 X31.1800 Y15.9400
G01 F60.00
G01 Z-0.0501
G01 F120.00
G01 X30.7340 Y15.9400
G01 X30.7340 Y16.4480
G01 X31.2227 Y16.4480
G01 X31.2335 Y16.4474
G01 X31.2778 Y16.4426
G01 X31.3019 Y16.4369
G01 X31.4132 Y16.3951
G01 X31.4378 Y16.3817
G01 X31.5316 Y16.3114
G01 X31.5514 Y16.2916
G01 X31.6217 Y16.1978
G01 X31.6351 Y16.1732
G01 X31.6769 Y16.0619
G01 X31.6826 Y16.0378
G01 X31.6874 Y15.9934
G01 X31.6880 Y15.9827
G01 X31.6880 Y15.4940
G01 X31.1800 Y15.4940
G01 X31.1800 Y15.9400
G00 Z2.0000
G00 X31.2887 Y13.1551
G01 F60.00
G01 Z-0.0501
G01 F120.00
G01 X31.2776 Y13.0814
G01 X31.2582 Y13.0039
G01 X31.2313 Y12.9288
G01 X31.1972 Y12.8567
G01 X31.1562 Y12.7882
G01 X31.1086 Y12.7241
G01 X31.0550 Y12.6650
G01 X30.9959 Y12.6114
G01 X30.9318 Y12.5638
G01 X30.8633 Y12.5228
G01 X30.7912 Y12.4887
G01 X30.7161 Y12.4618
G01 X30.6386 Y12.4424
G01 X30.5597 Y12.4307
G01 X30.4800 Y12.4268
G01 X30.4003 Y12.4307
G01 X30.3214 Y12.4424
G01 X30.2439 Y12.4618
G01 X30.1688 Y12.4887
G01 X30.0967 Y12.5228
G01 X30.0282 Y12.5638
G01 X29.9641 Y12.6114
G01 X29.9050 Y12.6650
G01 X29.8514 Y12.7241
G01 X29.8038 Y12.7882
G01 X29.7628 Y12.8567
G01 X29.7287 Y12.9288
G01 X29.7018 Y13.0039
G01 X29.6824 Y13.0814
G01 X29.6707 Y13.1603
G01 X29.6668 Y13.2400
G01 X29.6707 Y13.3197
G01 X29.6824 Y13.3986
G01 X29.7018 Y13.4761
G01 X29.7287 Y13.5512
G01 X29.7628 Y13.6233
G01 X29.8038 Y13.6918
G01 X29.8514 Y13.7559
G01 X29.9050 Y13.8150
G01 X29.9641 Y13.8686
G01 X30.0282 Y13.9162
G01 X30.0967 Y13.9572
G01 X30.1688 Y13.9913
G01 X30.2439 Y14.0182
G01 X30.3214 Y14.0376
G01 X30.4003 Y14.0493
G01 X30.4800 Y14.0532
G01 X30.5597 Y14.0493
G01 X30.6386 Y14.0376
G01 X30.7161 Y14.0182
G01 X30.7912 Y13.9913
G01 X30.8633 Y13.9572
G01 X30.9318 Y13.9162
G01 X30.9959 Y13.8686
G01 X31.0550 Y13.8150
G01 X31.1086 Y13.7559
G01 X31.1562 Y13.6918
G01 X31.1972 Y13.6233
G01 X31.2313 Y13.5512
G01 X31.2582 Y13.4761
G01 X31.2776 Y13.3986
G01 X31.2893 Y13.3197
G01 X31.2932 Y13.2400
G01 X31.2897 Y13.1655
G01 X31.2887 Y13.1551
G00 Z2.0000
G00 X30.5453 Y8.4798
G01 F60.00
G01 Z-0.0501
G01 F120.00
G01 X30.6045 Y8.4709
G01 X30.6653 Y8.4557
G01 X30.7242 Y8.4346
G01 X30.7762 Y8.4102
G01 X30.7854 Y8.4053
G01 X30.8302 Y8.3784
G01 X30.8388 Y8.3727
G01 X30.8849 Y8.3383
G01 X30.9293 Y8.2982
G01 X30.9349 Y8.2925
G01 X30.9733 Y8.2499
G01 X31.0077 Y8.2038
G01 X31.0134 Y8.1952
G01 X31.0403 Y8.1504
G01 X31.0441 Y8.1434
G01 X31.0696 Y8.0892
G01 X31.0899 Y8.0329
G01 X31.0921 Y8.0252
G01 X31.1054 Y7.9722
G01 X31.1114 Y7.9333
G01 X33.0228 Y7.9333
G01 X33.0507 Y7.9318
G01 X33.0760 Y7.9282
G01 X33.0862 Y7.9261
G01 X33.1109 Y7.9198
G01 X33.1350 Y7.9113
G01 X33.1447 Y7.9073
G01 X33.1677 Y7.8963
G01 X33.1897 Y7.8833
G01 X33.1983 Y7.8775
G01 X33.2188 Y7.8622
G01 X33.2413 Y7.8418
G01 X35.6898 Y5.3933
G01 X37.2432 Y5.3933
G01 X37.2574 Y5.4320
G01 X37.2923 Y5.5058
G01 X37.2960 Y5.5129
G01 X37.3407 Y5.5873
G01 X37.3923 Y5.6572
G01 X37.3975 Y5.6633
G01 X37.4507 Y5.7220
G01 X37.4580 Y5.7293
G01 X37.5207 Y5.7859
G01 X37.5904 Y5.8377
G01 X37.5970 Y5.8421
G01 X37.6650 Y5.8828
G01 X37.6742 Y5.8877
G01 X37.7505 Y5.9237
G01 X37.8349 Y5.9539
G01 X37.9218 Y5.9757
G01 X38.0053 Y5.9882
G01 X38.0157 Y5.9892
G01 X38.1000 Y5.9932
G01 X38.1843 Y5.9892
G01 X38.1947 Y5.9882
G01 X38.2782 Y5.9757
G01 X38.3651 Y5.9539
G01 X38.4495 Y5.9237
G01 X38.5258 Y5.8877
G01 X38.5350 Y5.8828
G01 X38.6030 Y5.8421
G01 X38.6096 Y5.8377
G01 X38.6793 Y5.7859
G01 X38.7420 Y5.7293
G01 X38.7493 Y5.7220
G01 X38.8025 Y5.6633
G01 X38.8077 Y5.6572
G01 X38.8593 Y5.5873
G01 X38.9040 Y5.5129
G01 X38.9077 Y5.5058
G01 X38.9426 Y5.4320
G01 X38.9568 Y5.3933
G01 X53.2102 Y5.3933
G01 X55.6587 Y7.8418
G01 X55.6812 Y7.8622
G01 X55.7017 Y7.8775
G01 X55.7103 Y7.8833
G01 X55.7323 Y7.8963
G01 X55.7601 Y7.9095
G01 X55.7841 Y7.9182
G01 X55.7941 Y7.9212
G01 X55.8189 Y7.9273
G01 X55.8493 Y7.9318
G01 X55.8797 Y7.9333
G01 X56.4752 Y7.9333
G01 X56.4951 Y7.9886
G01 X56.5343 Y8.0716
G01 X56.5381 Y8.0786
G01 X56.5826 Y8.1528
G01 X56.5871 Y8.1594
G01 X56.6404 Y8.2311
G01 X56.7020 Y8.2991
G01 X56.7077 Y8.3047
G01 X56.7739 Y8.3646
G01 X56.8499 Y8.4209
G01 X56.9309 Y8.4695
G01 X57.0164 Y8.5099
G01 X57.1004 Y8.5401
G01 X57.1104 Y8.5431
G01 X57.1971 Y8.5647
G01 X57.2878 Y8.5783
G01 X57.2958 Y8.5790
G01 X57.3822 Y8.5832
G01 X57.6402 Y8.5831
G01 X57.7242 Y8.5790
G01 X57.7346 Y8.5779
G01 X57.8229 Y8.5647
G01 X57.9096 Y8.5431
G01 X57.9196 Y8.5401
G01 X58.0036 Y8.5099
G01 X58.0844 Y8.4718
G01 X58.0915 Y8.4681
G01 X58.1701 Y8.4209
G01 X58.2419 Y8.3678
G01 X58.2500 Y8.3612
G01 X58.3161 Y8.3011
G01 X58.3762 Y8.2350
G01 X58.3828 Y8.2269
G01 X58.4359 Y8.1551
G01 X58.4819 Y8.0786
G01 X58.4868 Y8.0694
G01 X58.5249 Y7.9886
G01 X58.5551 Y7.9046
G01 X58.5581 Y7.8946
G01 X58.5797 Y7.8079
G01 X58.5929 Y7.7196
G01 X58.5940 Y7.7092
G01 X58.5981 Y7.6252
G01 X58.5982 Y7.6172
G01 X58.5936 Y7.5256
G01 X58.5797 Y7.4321
G01 X58.5567 Y7.3404
G01 X58.5268 Y7.2563
G01 X58.5228 Y7.2466
G01 X58.4868 Y7.1706
G01 X58.4819 Y7.1614
G01 X58.4359 Y7.0849
G01 X58.3828 Y7.0131
G01 X58.3762 Y7.0050
G01 X58.3161 Y6.9389
G01 X58.2461 Y6.8754
G01 X58.1701 Y6.8191
G01 X58.0891 Y6.7705
G01 X58.0036 Y6.7301
G01 X57.9146 Y6.6983
G01 X57.8229 Y6.6753
G01 X57.7322 Y6.6617
G01 X57.7242 Y6.6610
G01 X57.6353 Y6.6568
G01 X57.3822 Y6.6568
G01 X57.2906 Y6.6614
G01 X57.2022 Y6.6744
G01 X57.1920 Y6.6764
G01 X57.1054 Y6.6983
G01 X57.0190 Y6.7291
G01 X57.0116 Y6.7322
G01 X56.9309 Y6.7705
G01 X56.8499 Y6.8191
G01 X56.7739 Y6.8754
G01 X56.7077 Y6.9353
G01 X56.7020 Y6.9409
G01 X56.6404 Y7.0089
G01 X56.5871 Y7.0806
G01 X56.5826 Y7.0872
G01 X56.5381 Y7.1614
G01 X56.5343 Y7.1684
G01 X56.4951 Y7.2514
G01 X56.4752 Y7.3067
G01 X56.0098 Y7.3067
G01 X53.5596 Y4.8565
G01 X53.5388 Y4.8378
G01 X53.5183 Y4.8225
G01 X53.5097 Y4.8167
G01 X53.4877 Y4.8037
G01 X53.4599 Y4.7905
G01 X53.4359 Y4.7818
G01 X53.4259 Y4.7788
G01 X53.3984 Y4.7722
G01 X53.3707 Y4.7682
G01 X53.3403 Y4.7667
G01 X38.9568 Y4.7667
G01 X38.9426 Y4.7280
G01 X38.9077 Y4.6542
G01 X38.9040 Y4.6471
G01 X38.8593 Y4.5727
G01 X38.8077 Y4.5028
G01 X38.8025 Y4.4967
G01 X38.7493 Y4.4380
G01 X38.7420 Y4.4307
G01 X38.6793 Y4.3741
G01 X38.6096 Y4.3223
G01 X38.6030 Y4.3179
G01 X38.5350 Y4.2772
G01 X38.5258 Y4.2723
G01 X38.4495 Y4.2363
G01 X38.3651 Y4.2061
G01 X38.2782 Y4.1843
G01 X38.1947 Y4.1718
G01 X38.1843 Y4.1708
G01 X38.1052 Y4.1669
G01 X38.0972 Y4.1668
G01 X38.0105 Y4.1712
G01 X37.9270 Y4.1834
G01 X37.9168 Y4.1855
G01 X37.8349 Y4.2061
G01 X37.7505 Y4.2363
G01 X37.6742 Y4.2723
G01 X37.6650 Y4.2772
G01 X37.5970 Y4.3179
G01 X37.5904 Y4.3223
G01 X37.5207 Y4.3741
G01 X37.4580 Y4.4307
G01 X37.4507 Y4.4380
G01 X37.3975 Y4.4967
G01 X37.3923 Y4.5028
G01 X37.3407 Y4.5727
G01 X37.2960 Y4.6471
G01 X37.2923 Y4.6542
G01 X37.2574 Y4.7280
G01 X37.2432 Y4.7667
G01 X35.5572 Y4.7667
G01 X35.5293 Y4.7682
G01 X35.5040 Y4.7718
G01 X35.4938 Y4.7739
G01 X35.4691 Y4.7802
G01 X35.4450 Y4.7887
G01 X35.4353 Y4.7927
G01 X35.4123 Y4.8037
G01 X35.3903 Y4.8167
G01 X35.3817 Y4.8225
G01 X35.3612 Y4.8378
G01 X35.3387 Y4.8582
G01 X32.8902 Y7.3067
G01 X31.1114 Y7.3067
G01 X31.1059 Y7.2705
G01 X31.0915 Y7.2124
G01 X31.0891 Y7.2048
G01 X31.0707 Y7.1533
G01 X31.0675 Y7.1460
G01 X31.0428 Y7.0942
G01 X31.0134 Y7.0448
G01 X31.0091 Y7.0381
G01 X30.9765 Y6.9942
G01 X30.9699 Y6.9862
G01 X30.9313 Y6.9437
G01 X30.8888 Y6.9051
G01 X30.8808 Y6.8985
G01 X30.8346 Y6.8644
G01 X30.7854 Y6.8347
G01 X30.7784 Y6.8309
G01 X30.7290 Y6.8075
G01 X30.7194 Y6.8035
G01 X30.6653 Y6.7843
G01 X30.6096 Y6.7702
G01 X30.5994 Y6.7682
G01 X30.5426 Y6.7599
G01 X30.4800 Y6.7568
G01 X30.4226 Y6.7595
G01 X30.4123 Y6.7605
G01 X30.3555 Y6.7691
G01 X30.2998 Y6.7829
G01 X30.2898 Y6.7859
G01 X30.2358 Y6.8054
G01 X30.1838 Y6.8298
G01 X30.1767 Y6.8335
G01 X30.1254 Y6.8644
G01 X30.0751 Y6.9017
G01 X30.0287 Y6.9437
G01 X29.9867 Y6.9901
G01 X29.9494 Y7.0404
G01 X29.9172 Y7.0942
G01 X29.8904 Y7.1508
G01 X29.8709 Y7.2048
G01 X29.8685 Y7.2124
G01 X29.8541 Y7.2705
G01 X29.8455 Y7.3273
G01 X29.8445 Y7.3376
G01 X29.8418 Y7.3922
G01 X29.8418 Y7.8478
G01 X29.8449 Y7.9076
G01 X29.8532 Y7.9644
G01 X29.8546 Y7.9722
G01 X29.8693 Y8.0303
G01 X29.8904 Y8.0892
G01 X29.9172 Y8.1458
G01 X29.9494 Y8.1996
G01 X29.9867 Y8.2499
G01 X30.0287 Y8.2963
G01 X30.0751 Y8.3383
G01 X30.1212 Y8.3727
G01 X30.1298 Y8.3784
G01 X30.1792 Y8.4078
G01 X30.2310 Y8.4325
G01 X30.2406 Y8.4365
G01 X30.2898 Y8.4541
G01 X30.2998 Y8.4571
G01 X30.3555 Y8.4709
G01 X30.4174 Y8.4801
G01 X30.4800 Y8.4832
G01 X30.5374 Y8.4805
G01 X30.5453 Y8.4798
G00 Z2.0000
G00 X29.5017 Y6.9585
G01 F60.00
G01 Z-0.0501
G01 F120.00
G01 X29.5431 Y6.9892
G01 X29.5812 Y7.0238
G01 X29.6158 Y7.0619
G01 X29.6463 Y7.1030
G01 X29.6730 Y7.1475
G01 X29.6949 Y7.1938
G01 X29.7125 Y7.2429
G01 X29.7249 Y7.2926
G01 X29.7324 Y7.3432
G01 X29.7350 Y7.3947
G01 X29.7350 Y7.8450
G01 X29.7324 Y7.8968
G01 X29.7249 Y7.9474
G01 X29.7125 Y7.9971
G01 X29.6950 Y8.0459
G01 X29.6728 Y8.0928
G01 X29.6465 Y8.1367
G01 X29.6160 Y8.1778
G01 X29.5812 Y8.2162
G01 X29.5428 Y8.2510
G01 X29.5017 Y8.2815
G01 X29.4640 Y8.3041
G01 X29.4640 Y8.8471
G01 X29.5895 Y8.8102
G01 X29.6075 Y8.8029
G01 X29.7532 Y8.7267
G01 X29.8389 Y8.7042
G01 X29.9258 Y8.7210
G01 X29.9403 Y8.7281
G01 X30.0776 Y8.8024
G01 X30.2712 Y8.8623
G01 X30.4727 Y8.8835
G01 X30.6746 Y8.8651
G01 X30.8690 Y8.8079
G01 X31.0486 Y8.7140
G01 X31.2066 Y8.5870
G01 X31.3369 Y8.4317
G01 X31.3416 Y8.4232
G01 X31.3471 Y8.4152
G01 X31.3562 Y8.4101
G01 X31.3953 Y8.3658
G01 X31.4769 Y8.3315
G01 X31.5116 Y8.3285
G01 X32.9881 Y8.3285
G01 X33.0026 Y8.3290
G01 X33.0574 Y8.3327
G01 X33.1283 Y8.3206
G01 X33.1902 Y8.3131
G01 X33.2015 Y8.3089
G01 X33.2145 Y8.3053
G01 X33.2263 Y8.3032
G01 X33.2834 Y8.2782
G01 X33.3507 Y8.2525
G01 X33.3605 Y8.2457
G01 X33.3723 Y8.2391
G01 X33.3833 Y8.2343
G01 X33.4328 Y8.1964
G01 X33.4920 Y8.1554
G01 X33.5318 Y8.1107
G01 X33.5402 Y8.1018
G01 X35.7952 Y5.8468
G01 X35.8702 Y5.7997
G01 X35.9359 Y5.7885
G01 X36.8951 Y5.7885
G01 X36.9815 Y5.8082
G01 X37.0507 Y5.8634
G01 X37.0584 Y5.8737
G01 X37.0938 Y5.9243
G01 X37.2557 Y6.0862
G01 X37.4433 Y6.2175
G01 X37.6508 Y6.3143
G01 X37.8637 Y6.3714
G01 X37.8719 Y6.3735
G01 X38.1000 Y6.3935
G01 X38.3281 Y6.3735
G01 X38.3365 Y6.3713
G01 X38.5492 Y6.3143
G01 X38.7567 Y6.2175
G01 X38.9443 Y6.0862
G01 X39.1062 Y5.9243
G01 X39.1419 Y5.8734
G01 X39.2075 Y5.8139
G01 X39.2928 Y5.7889
G01 X39.3053 Y5.7885
G01 X52.9641 Y5.7885
G01 X53.0504 Y5.8082
G01 X53.1048 Y5.8468
G01 X55.3565 Y8.0984
G01 X55.3664 Y8.1090
G01 X55.4024 Y8.1504
G01 X55.4612 Y8.1920
G01 X55.5103 Y8.2305
G01 X55.5212 Y8.2354
G01 X55.5329 Y8.2421
G01 X55.5427 Y8.2490
G01 X55.6098 Y8.2754
G01 X55.6666 Y8.3010
G01 X55.6784 Y8.3032
G01 X55.6913 Y8.3069
G01 X55.7025 Y8.3113
G01 X55.7643 Y8.3194
G01 X55.8352 Y8.3323
G01 X55.8949 Y8.3289
G01 X55.9071 Y8.3285
G01 X56.1139 Y8.3285
G01 X56.2003 Y8.3482
G01 X56.2747 Y8.4103
G01 X56.2790 Y8.4161
G01 X56.2834 Y8.4233
G01 X56.4209 Y8.5818
G01 X56.4627 Y8.6603
G01 X56.4663 Y8.7485
G01 X56.4314 Y8.8295
G01 X56.3753 Y8.8815
G01 X56.3107 Y8.9215
G01 X56.1857 Y9.0467
G01 X56.0929 Y9.1973
G01 X56.0372 Y9.3651
G01 X56.0265 Y9.4696
G01 X56.0265 Y10.7704
G01 X56.0375 Y10.8762
G01 X56.0934 Y11.0439
G01 X56.1865 Y11.1943
G01 X56.3117 Y11.3193
G01 X56.4623 Y11.4121
G01 X56.6301 Y11.4678
G01 X56.7346 Y11.4785
G01 X58.2854 Y11.4785
G01 X58.3912 Y11.4675
G01 X58.5589 Y11.4116
G01 X58.7093 Y11.3185
G01 X58.8343 Y11.1933
G01 X58.9271 Y11.0427
G01 X58.9828 Y10.8749
G01 X58.9935 Y10.7704
G01 X58.9935 Y9.4696
G01 X58.9825 Y9.3638
G01 X58.9266 Y9.1961
G01 X58.8335 Y9.0457
G01 X58.7083 Y8.9207
G01 X58.6432 Y8.8806
G01 X58.5801 Y8.8185
G01 X58.5501 Y8.7351
G01 X58.5592 Y8.6471
G01 X58.6103 Y8.5672
G01 X58.6561 Y8.5234
G01 X58.7938 Y8.3385
G01 X58.8982 Y8.1329
G01 X58.9666 Y7.9128
G01 X58.9969 Y7.6842
G01 X58.9882 Y7.4538
G01 X58.9409 Y7.2282
G01 X58.8562 Y7.0138
G01 X58.7366 Y6.8167
G01 X58.5855 Y6.6426
G01 X58.4409 Y6.5240
G01 X58.3866 Y6.4540
G01 X58.3681 Y6.3674
G01 X58.3892 Y6.2811
G01 X58.4451 Y6.2128
G01 X58.4563 Y6.2048
G01 X58.4893 Y6.1826
G01 X58.6561 Y6.0234
G01 X58.7938 Y5.8385
G01 X58.8982 Y5.6329
G01 X58.9666 Y5.4128
G01 X58.9969 Y5.1842
G01 X58.9882 Y4.9538
G01 X58.9409 Y4.7282
G01 X58.8562 Y4.5138
G01 X58.7366 Y4.3167
G01 X58.5855 Y4.1426
G01 X58.4072 Y3.9964
G01 X58.2069 Y3.8823
G01 X57.9902 Y3.8037
G01 X57.7633 Y3.7626
G01 X57.7392 Y3.7615
G01 X57.3271 Y3.7615
G01 X57.1553 Y3.7761
G01 X56.9321 Y3.8340
G01 X56.7219 Y3.9287
G01 X56.5307 Y4.0574
G01 X56.3639 Y4.2166
G01 X56.2262 Y4.4015
G01 X56.1218 Y4.6071
G01 X56.0534 Y4.8272
G01 X56.0231 Y5.0558
G01 X56.0318 Y5.2862
G01 X56.0791 Y5.5118
G01 X56.1638 Y5.7262
G01 X56.2834 Y5.9233
G01 X56.4345 Y6.0974
G01 X56.5791 Y6.2160
G01 X56.6334 Y6.2860
G01 X56.6519 Y6.3726
G01 X56.6310 Y6.4587
G01 X56.5749 Y6.5272
G01 X56.5637 Y6.5352
G01 X56.5307 Y6.5574
G01 X56.3639 Y6.7166
G01 X56.3370 Y6.7527
G01 X56.2696 Y6.8102
G01 X56.1840 Y6.8328
G01 X56.0970 Y6.8160
G01 X56.0366 Y6.7746
G01 X53.8635 Y4.6016
G01 X53.8536 Y4.5910
G01 X53.8176 Y4.5496
G01 X53.7588 Y4.5080
G01 X53.7097 Y4.4695
G01 X53.6988 Y4.4646
G01 X53.6871 Y4.4579
G01 X53.6773 Y4.4510
G01 X53.6102 Y4.4246
G01 X53.5534 Y4.3990
G01 X53.5416 Y4.3968
G01 X53.5287 Y4.3931
G01 X53.5175 Y4.3887
G01 X53.4557 Y4.3806
G01 X53.3848 Y4.3677
G01 X53.3251 Y4.3711
G01 X53.3128 Y4.3715
G01 X39.3049 Y4.3715
G01 X39.2183 Y4.3516
G01 X39.1493 Y4.2966
G01 X39.1416 Y4.2863
G01 X39.1062 Y4.2357
G01 X38.9443 Y4.0738
G01 X38.7567 Y3.9425
G01 X38.5492 Y3.8457
G01 X38.3363 Y3.7886
G01 X38.3281 Y3.7865
G01 X38.1000 Y3.7665
G01 X37.8719 Y3.7865
G01 X37.8635 Y3.7887
G01 X37.6508 Y3.8457
G01 X37.4433 Y3.9425
G01 X37.2557 Y4.0738
G01 X37.0938 Y4.2357
G01 X37.0581 Y4.2866
G01 X36.9925 Y4.3461
G01 X36.9075 Y4.3711
G01 X36.8947 Y4.3715
G01 X35.5919 Y4.3715
G01 X35.5774 Y4.3710
G01 X35.5226 Y4.3673
G01 X35.4517 Y4.3794
G01 X35.3898 Y4.3869
G01 X35.3785 Y4.3911
G01 X35.3655 Y4.3947
G01 X35.3537 Y4.3968
G01 X35.2966 Y4.4218
G01 X35.2293 Y4.4475
G01 X35.2195 Y4.4543
G01 X35.2077 Y4.4609
G01 X35.1967 Y4.4657
G01 X35.1472 Y4.5036
G01 X35.0880 Y4.5446
G01 X35.0482 Y4.5893
G01 X35.0398 Y4.5982
G01 X32.7851 Y6.8530
G01 X32.7098 Y6.9003
G01 X32.6438 Y6.9115
G01 X31.5115 Y6.9115
G01 X31.4248 Y6.8918
G01 X31.3556 Y6.8366
G01 X31.3485 Y6.8268
G01 X31.3450 Y6.8203
G01 X31.2169 Y6.6632
G01 X31.0607 Y6.5340
G01 X30.8824 Y6.4376
G01 X30.6888 Y6.3777
G01 X30.4873 Y6.3565
G01 X30.2854 Y6.3749
G01 X30.0910 Y6.4321
G01 X29.9357 Y6.5133
G01 X29.8501 Y6.5358
G01 X29.7631 Y6.5190
G01 X29.7486 Y6.5118
G01 X29.6208 Y6.4427
G01 X29.6029 Y6.4352
G01 X29.4640 Y6.3922
G01 X29.4640 Y6.9359
G01 X29.5017 Y6.9585
G00 Z2.0000
G00 X21.1626 Y4.7280
G01 F60.00
G01 Z-0.0501
G01 F120.00
G01 X21.1254 Y4.6495
G01 X21.0793 Y4.5727
G01 X21.0259 Y4.5007
G01 X20.9657 Y4.4343
G01 X20.8993 Y4.3741
G01 X20.8273 Y4.3207
G01 X20.7505 Y4.2746
G01 X20.6695 Y4.2363
G01 X20.5851 Y4.2061
G01 X20.4982 Y4.1843
G01 X20.4095 Y4.1712
G01 X20.3200 Y4.1668
G01 X20.2305 Y4.1712
G01 X20.1418 Y4.1843
G01 X20.0549 Y4.2061
G01 X19.9705 Y4.2363
G01 X19.8895 Y4.2746
G01 X19.8127 Y4.3207
G01 X19.7407 Y4.3741
G01 X19.6743 Y4.4343
G01 X19.6141 Y4.5007
G01 X19.5607 Y4.5727
G01 X19.5146 Y4.6495
G01 X19.4763 Y4.7305
G01 X19.4461 Y4.8149
G01 X19.4243 Y4.9018
G01 X19.4112 Y4.9905
G01 X19.4068 Y5.0800
G01 X19.4112 Y5.1695
G01 X19.4243 Y5.2582
G01 X19.4461 Y5.3451
G01 X19.4763 Y5.4295
G01 X19.5123 Y5.5058
G01 X19.5172 Y5.5150
G01 X19.5607 Y5.5873
G01 X19.6141 Y5.6593
G01 X19.6743 Y5.7257
G01 X19.7367 Y5.7825
G01 X19.7448 Y5.7891
G01 X19.8127 Y5.8393
G01 X19.8895 Y5.8854
G01 X19.9658 Y5.9216
G01 X19.9754 Y5.9256
G01 X20.0549 Y5.9539
G01 X20.1418 Y5.9757
G01 X20.2253 Y5.9882
G01 X20.2357 Y5.9892
G01 X20.3200 Y5.9932
G01 X20.4043 Y5.9892
G01 X20.4147 Y5.9882
G01 X20.4982 Y5.9757
G01 X20.5851 Y5.9539
G01 X20.6695 Y5.9237
G01 X20.7458 Y5.8877
G01 X20.7550 Y5.8828
G01 X20.8230 Y5.8421
G01 X20.8296 Y5.8377
G01 X20.8993 Y5.7859
G01 X20.9620 Y5.7293
G01 X20.9693 Y5.7220
G01 X21.0225 Y5.6633
G01 X21.0277 Y5.6572
G01 X21.0793 Y5.5873
G01 X21.1240 Y5.5129
G01 X21.1277 Y5.5058
G01 X21.1626 Y5.4320
G01 X21.1768 Y5.3933
G01 X25.2702 Y5.3933
G01 X27.3018 Y7.4249
G01 X27.3018 Y8.3728
G01 X27.3026 Y8.3839
G01 X27.3045 Y8.3948
G01 X27.3075 Y8.4055
G01 X27.3127 Y8.4184
G01 X27.3179 Y8.4282
G01 X27.3241 Y8.4374
G01 X27.3311 Y8.4460
G01 X27.3390 Y8.4539
G01 X27.3476 Y8.4609
G01 X27.3544 Y8.4656
G01 X27.3641 Y8.4711
G01 X27.3743 Y8.4756
G01 X27.3848 Y8.4791
G01 X27.3929 Y8.4810
G01 X27.4039 Y8.4827
G01 X27.4122 Y8.4832
G01 X28.4678 Y8.4832
G01 X28.4816 Y8.4820
G01 X28.4898 Y8.4805
G01 X28.4979 Y8.4783
G01 X28.5109 Y8.4735
G01 X28.5184 Y8.4698
G01 X28.5256 Y8.4656
G01 X28.5368 Y8.4575
G01 X28.5431 Y8.4520
G01 X28.5489 Y8.4460
G01 X28.5542 Y8.4396
G01 X28.5591 Y8.4329
G01 X28.5661 Y8.4209
G01 X28.5706 Y8.4107
G01 X28.5748 Y8.3975
G01 X28.5774 Y8.3839
G01 X28.5782 Y8.3703
G01 X28.5782 Y6.8697
G01 X28.5777 Y6.8589
G01 X28.5765 Y6.8506
G01 X28.5748 Y6.8425
G01 X28.5716 Y6.8319
G01 X28.5673 Y6.8216
G01 X28.5635 Y6.8142
G01 X28.5576 Y6.8048
G01 X28.5525 Y6.7982
G01 X28.5431 Y6.7880
G01 X28.5346 Y6.7808
G01 X28.5256 Y6.7744
G01 X28.5159 Y6.7689
G01 X28.5057 Y6.7644
G01 X28.4952 Y6.7609
G01 X28.4816 Y6.7580
G01 X28.4706 Y6.7569
G01 X27.5199 Y6.7568
G01 X25.6213 Y4.8582
G01 X25.5988 Y4.8378
G01 X25.5783 Y4.8225
G01 X25.5697 Y4.8167
G01 X25.5452 Y4.8024
G01 X25.5224 Y4.7916
G01 X25.5150 Y4.7887
G01 X25.4909 Y4.7802
G01 X25.4662 Y4.7739
G01 X25.4560 Y4.7718
G01 X25.4307 Y4.7682
G01 X25.4003 Y4.7667
G01 X21.1768 Y4.7667
G01 X21.1626 Y4.7280
G00 Z2.0000
G00 X19.0257 Y4.8609
G01 F60.00
G01 Z-0.0501
G01 F120.00
G01 X19.0065 Y5.0800
G01 X19.0265 Y5.3081
G01 X19.0857 Y5.5292
G01 X19.1825 Y5.7367
G01 X19.3138 Y5.9243
G01 X19.4757 Y6.0862
G01 X19.6633 Y6.2175
G01 X19.8708 Y6.3143
G01 X20.0919 Y6.3735
G01 X20.3200 Y6.3935
G01 X20.5394 Y6.3743
G01 X20.5481 Y6.3735
G01 X20.7692 Y6.3143
G01 X20.9767 Y6.2175
G01 X21.1643 Y6.0862
G01 X21.3262 Y5.9243
G01 X21.3619 Y5.8734
G01 X21.4275 Y5.8139
G01 X21.5125 Y5.7889
G01 X21.5253 Y5.7885
G01 X25.0237 Y5.7885
G01 X25.1104 Y5.8082
G01 X25.1651 Y5.8470
G01 X26.8482 Y7.5302
G01 X26.8953 Y7.6052
G01 X26.9065 Y7.6709
G01 X26.9065 Y8.4181
G01 X26.9133 Y8.4803
G01 X26.9644 Y8.6167
G01 X27.0517 Y8.7333
G01 X27.1683 Y8.8206
G01 X27.3047 Y8.8717
G01 X27.3669 Y8.8785
G01 X28.5131 Y8.8785
G01 X28.5753 Y8.8717
G01 X28.7117 Y8.8206
G01 X28.7213 Y8.8209
G01 X28.7769 Y8.8051
G01 X28.8461 Y8.8138
G01 X28.9560 Y8.8478
G01 X28.9560 Y8.5421
G01 X28.9614 Y8.4961
G01 X28.9624 Y8.4920
G01 X28.9667 Y8.4803
G01 X28.9735 Y8.4181
G01 X28.9735 Y8.3146
G01 X28.9183 Y8.2815
G01 X28.8769 Y8.2508
G01 X28.8388 Y8.2162
G01 X28.8042 Y8.1781
G01 X28.7735 Y8.1367
G01 X28.7470 Y8.0925
G01 X28.7250 Y8.0459
G01 X28.7076 Y7.9974
G01 X28.6950 Y7.9471
G01 X28.6875 Y7.8965
G01 X28.6850 Y7.8453
G01 X28.6850 Y7.3953
G01 X28.6876 Y7.3432
G01 X28.6951 Y7.2926
G01 X28.7076 Y7.2426
G01 X28.7251 Y7.1938
G01 X28.7470 Y7.1475
G01 X28.7733 Y7.1036
G01 X28.8044 Y7.0617
G01 X28.8388 Y7.0238
G01 X28.8767 Y6.9894
G01 X28.9183 Y6.9585
G01 X28.9735 Y6.9254
G01 X28.9735 Y6.8219
G01 X28.9667 Y6.7597
G01 X28.9624 Y6.7480
G01 X28.9614 Y6.7439
G01 X28.9560 Y6.6979
G01 X28.9560 Y6.3929
G01 X28.8422 Y6.4264
G01 X28.7538 Y6.4319
G01 X28.7192 Y6.4200
G01 X28.7117 Y6.4194
G01 X28.5753 Y6.3683
G01 X28.5131 Y6.3615
G01 X27.7659 Y6.3615
G01 X27.6796 Y6.3418
G01 X27.6249 Y6.3030
G01 X25.9235 Y4.6016
G01 X25.9136 Y4.5910
G01 X25.8776 Y4.5496
G01 X25.8188 Y4.5080
G01 X25.7697 Y4.4695
G01 X25.7588 Y4.4646
G01 X25.7471 Y4.4579
G01 X25.7373 Y4.4510
G01 X25.6702 Y4.4246
G01 X25.6134 Y4.3990
G01 X25.6016 Y4.3968
G01 X25.5887 Y4.3931
G01 X25.5775 Y4.3887
G01 X25.5157 Y4.3806
G01 X25.4448 Y4.3677
G01 X25.3851 Y4.3711
G01 X25.3728 Y4.3715
G01 X21.5249 Y4.3715
G01 X21.4383 Y4.3516
G01 X21.3693 Y4.2966
G01 X21.3616 Y4.2863
G01 X21.3262 Y4.2357
G01 X21.1643 Y4.0738
G01 X20.9767 Y3.9425
G01 X20.7692 Y3.8457
G01 X20.5563 Y3.7886
G01 X20.5481 Y3.7865
G01 X20.3200 Y3.7665
G01 X20.0919 Y3.7865
G01 X19.8708 Y3.8457
G01 X19.6633 Y3.9425
G01 X19.4757 Y4.0738
G01 X19.3138 Y4.2357
G01 X19.1825 Y4.4233
G01 X19.0857 Y4.6308
G01 X19.0265 Y4.8519
G01 X19.0257 Y4.8609
G00 Z2.0000
G00 X36.9625 Y14.5833
G01 F60.00
G01 Z-0.0501
G01 F120.00
G01 X36.8657 Y14.7908
G01 X36.8065 Y15.0119
G01 X36.7865 Y15.2400
G01 X36.8065 Y15.4681
G01 X36.8087 Y15.4765
G01 X36.8657 Y15.6892
G01 X36.9625 Y15.8967
G01 X37.0938 Y16.0843
G01 X37.2557 Y16.2462
G01 X37.4433 Y16.3775
G01 X37.6508 Y16.4743
G01 X37.8719 Y16.5335
G01 X38.1000 Y16.5535
G01 X38.3281 Y16.5335
G01 X38.3365 Y16.5313
G01 X38.5492 Y16.4743
G01 X38.7567 Y16.3775
G01 X38.9443 Y16.2462
G01 X39.1062 Y16.0843
G01 X39.2375 Y15.8967
G01 X39.3343 Y15.6892
G01 X39.3935 Y15.4681
G01 X39.4135 Y15.2400
G01 X39.3935 Y15.0119
G01 X39.3857 Y14.9825
G01 X39.3343 Y14.7908
G01 X39.2375 Y14.5833
G01 X39.1062 Y14.3957
G01 X38.9443 Y14.2338
G01 X38.7567 Y14.1025
G01 X38.5492 Y14.0057
G01 X38.3281 Y13.9465
G01 X38.1000 Y13.9265
G01 X37.8719 Y13.9465
G01 X37.8635 Y13.9487
G01 X37.6508 Y14.0057
G01 X37.4433 Y14.1025
G01 X37.2557 Y14.2338
G01 X37.0938 Y14.3957
G01 X36.9625 Y14.5833
G00 Z2.0000
G00 X39.0085 Y15.1477
G01 F60.00
G01 Z-0.0501
G01 F120.00
G01 X38.9957 Y15.0618
G01 X38.9739 Y14.9749
G01 X38.9437 Y14.8905
G01 X38.9054 Y14.8095
G01 X38.8593 Y14.7327
G01 X38.8059 Y14.6607
G01 X38.7457 Y14.5943
G01 X38.6793 Y14.5341
G01 X38.6073 Y14.4807
G01 X38.5305 Y14.4346
G01 X38.4495 Y14.3963
G01 X38.3651 Y14.3661
G01 X38.2782 Y14.3443
G01 X38.1895 Y14.3312
G01 X38.1000 Y14.3268
G01 X38.0105 Y14.3312
G01 X37.9218 Y14.3443
G01 X37.8349 Y14.3661
G01 X37.7505 Y14.3963
G01 X37.6695 Y14.4346
G01 X37.5927 Y14.4807
G01 X37.5207 Y14.5341
G01 X37.4543 Y14.5943
G01 X37.3941 Y14.6607
G01 X37.3407 Y14.7327
G01 X37.2946 Y14.8095
G01 X37.2563 Y14.8905
G01 X37.2261 Y14.9749
G01 X37.2043 Y15.0618
G01 X37.1912 Y15.1505
G01 X37.1868 Y15.2400
G01 X37.1912 Y15.3295
G01 X37.2043 Y15.4182
G01 X37.2261 Y15.5051
G01 X37.2563 Y15.5895
G01 X37.2946 Y15.6705
G01 X37.3407 Y15.7473
G01 X37.3941 Y15.8193
G01 X37.4543 Y15.8857
G01 X37.5207 Y15.9459
G01 X37.5927 Y15.9993
G01 X37.6695 Y16.0454
G01 X37.7505 Y16.0837
G01 X37.8349 Y16.1139
G01 X37.9218 Y16.1357
G01 X38.0105 Y16.1488
G01 X38.1000 Y16.1532
G01 X38.1895 Y16.1488
G01 X38.2782 Y16.1357
G01 X38.3651 Y16.1139
G01 X38.4495 Y16.0837
G01 X38.5305 Y16.0454
G01 X38.6073 Y15.9993
G01 X38.6793 Y15.9459
G01 X38.7457 Y15.8857
G01 X38.8059 Y15.8193
G01 X38.8593 Y15.7473
G01 X38.9054 Y15.6705
G01 X38.9437 Y15.5895
G01 X38.9739 Y15.5051
G01 X38.9957 Y15.4182
G01 X39.0088 Y15.3295
G01 X39.0132 Y15.2400
G01 X39.0092 Y15.1557
G01 X39.0085 Y15.1477
G00 Z2.0000
G00 X44.5364 Y20.6035
G01 F60.00
G01 Z-0.0501
G01 F120.00
G01 X44.4395 Y20.8374
G01 X44.3804 Y21.0836
G01 X44.3605 Y21.3360
G01 X44.3804 Y21.5884
G01 X44.4395 Y21.8346
G01 X44.5364 Y22.0685
G01 X44.6687 Y22.2844
G01 X44.8331 Y22.4769
G01 X45.0256 Y22.6413
G01 X45.2415 Y22.7736
G01 X45.4754 Y22.8705
G01 X45.7216 Y22.9296
G01 X45.9072 Y22.9442
G01 X45.9108 Y22.9445
G01 X46.0372 Y22.9445
G01 X46.2264 Y22.9296
G01 X46.4726 Y22.8705
G01 X46.7065 Y22.7736
G01 X46.9224 Y22.6413
G01 X46.9334 Y22.6319
G01 X47.1149 Y22.4769
G01 X47.2793 Y22.2844
G01 X47.4116 Y22.0685
G01 X47.5085 Y21.8346
G01 X47.5124 Y21.8185
G01 X47.5676 Y21.5884
G01 X47.5875 Y21.3360
G01 X47.5676 Y21.0836
G01 X47.5085 Y20.8374
G01 X47.4116 Y20.6035
G01 X47.2793 Y20.3876
G01 X47.2488 Y20.3518
G01 X47.1149 Y20.1951
G01 X46.9224 Y20.0307
G01 X46.7065 Y19.8984
G01 X46.4726 Y19.8015
G01 X46.2264 Y19.7424
G01 X46.0408 Y19.7278
G01 X46.0372 Y19.7275
G01 X45.9108 Y19.7275
G01 X45.7216 Y19.7424
G01 X45.4754 Y19.8015
G01 X45.2415 Y19.8984
G01 X45.0256 Y20.0307
G01 X44.8331 Y20.1951
G01 X44.6687 Y20.3876
G01 X44.5364 Y20.6035
G00 Z2.0000
G00 X49.2683 Y13.8129
G01 F60.00
G01 Z-0.0501
G01 F120.00
G01 X49.2794 Y13.8115
G01 X49.2875 Y13.8098
G01 X49.2981 Y13.8066
G01 X49.3084 Y13.8023
G01 X49.3182 Y13.7971
G01 X49.3252 Y13.7926
G01 X49.3339 Y13.7857
G01 X49.3420 Y13.7781
G01 X49.3492 Y13.7696
G01 X49.3541 Y13.7629
G01 X49.3598 Y13.7534
G01 X49.3646 Y13.7433
G01 X49.3675 Y13.7355
G01 X49.3705 Y13.7248
G01 X49.3724 Y13.7139
G01 X49.3732 Y13.7028
G01 X49.3732 Y11.6972
G01 X49.3724 Y11.6861
G01 X49.3705 Y11.6752
G01 X49.3675 Y11.6645
G01 X49.3646 Y11.6567
G01 X49.3598 Y11.6466
G01 X49.3556 Y11.6394
G01 X49.3492 Y11.6304
G01 X49.3420 Y11.6219
G01 X49.3339 Y11.6143
G01 X49.3252 Y11.6074
G01 X49.3158 Y11.6015
G01 X49.3059 Y11.5965
G01 X49.2955 Y11.5925
G01 X49.2848 Y11.5895
G01 X49.2739 Y11.5876
G01 X49.2603 Y11.5868
G01 X47.2572 Y11.5868
G01 X47.2489 Y11.5873
G01 X47.2379 Y11.5890
G01 X47.2271 Y11.5917
G01 X47.2167 Y11.5954
G01 X47.2066 Y11.6002
G01 X47.1971 Y11.6059
G01 X47.1904 Y11.6108
G01 X47.1819 Y11.6180
G01 X47.1743 Y11.6261
G01 X47.1674 Y11.6348
G01 X47.1615 Y11.6442
G01 X47.1565 Y11.6541
G01 X47.1525 Y11.6645
G01 X47.1495 Y11.6752
G01 X47.1476 Y11.6861
G01 X47.1468 Y11.6997
G01 X47.1468 Y13.7028
G01 X47.1476 Y13.7139
G01 X47.1495 Y13.7248
G01 X47.1517 Y13.7329
G01 X47.1554 Y13.7433
G01 X47.1602 Y13.7534
G01 X47.1659 Y13.7629
G01 X47.1725 Y13.7718
G01 X47.1780 Y13.7781
G01 X47.1861 Y13.7857
G01 X47.1948 Y13.7926
G01 X47.2042 Y13.7985
G01 X47.2141 Y13.8035
G01 X47.2245 Y13.8075
G01 X47.2352 Y13.8105
G01 X47.2461 Y13.8124
G01 X47.2572 Y13.8132
G01 X49.2603 Y13.8132
G01 X49.2683 Y13.8129
G00 Z2.0000
G00 X47.0133 Y11.2494
G01 F60.00
G01 Z-0.0501
G01 F120.00
G01 X46.8967 Y11.3367
G01 X46.8094 Y11.4533
G01 X46.7583 Y11.5897
G01 X46.7515 Y11.6519
G01 X46.7515 Y13.7481
G01 X46.7583 Y13.8103
G01 X46.8094 Y13.9467
G01 X46.8967 Y14.0633
G01 X47.0133 Y14.1506
G01 X47.1497 Y14.2017
G01 X47.2119 Y14.2085
G01 X49.3081 Y14.2085
G01 X49.3703 Y14.2017
G01 X49.5067 Y14.1506
G01 X49.6233 Y14.0633
G01 X49.7106 Y13.9467
G01 X49.7617 Y13.8103
G01 X49.7685 Y13.7481
G01 X49.7685 Y11.6519
G01 X49.7617 Y11.5897
G01 X49.7106 Y11.4533
G01 X49.6233 Y11.3367
G01 X49.5067 Y11.2494
G01 X49.3703 Y11.1983
G01 X49.3081 Y11.1915
G01 X47.2119 Y11.1915
G01 X47.1497 Y11.1983
G01 X47.0133 Y11.2494
G00 Z2.0000
G00 X46.9118 Y8.2130
G01 F60.00
G01 Z-0.0501
G01 F120.00
G01 X46.8209 Y8.4324
G01 X46.7655 Y8.6633
G01 X46.7468 Y8.9000
G01 X46.7655 Y9.1367
G01 X46.8209 Y9.3676
G01 X46.9118 Y9.5870
G01 X47.0358 Y9.7894
G01 X47.1900 Y9.9700
G01 X47.3706 Y10.1242
G01 X47.5730 Y10.2482
G01 X47.7924 Y10.3391
G01 X48.0233 Y10.3945
G01 X48.2600 Y10.4132
G01 X48.4967 Y10.3945
G01 X48.7276 Y10.3391
G01 X48.9470 Y10.2482
G01 X49.1494 Y10.1242
G01 X49.3300 Y9.9700
G01 X49.4842 Y9.7894
G01 X49.6082 Y9.5870
G01 X49.6991 Y9.3676
G01 X49.7545 Y9.1367
G01 X49.7732 Y8.9000
G01 X49.7545 Y8.6633
G01 X49.6991 Y8.4324
G01 X49.6082 Y8.2130
G01 X49.4842 Y8.0106
G01 X49.4006 Y7.9128
G01 X49.3300 Y7.8300
G01 X49.1494 Y7.6758
G01 X48.9470 Y7.5518
G01 X48.7276 Y7.4609
G01 X48.4967 Y7.4055
G01 X48.2600 Y7.3868
G01 X48.0233 Y7.4055
G01 X47.7924 Y7.4609
G01 X47.5730 Y7.5518
G01 X47.3706 Y7.6758
G01 X47.1900 Y7.8300
G01 X47.1850 Y7.8360
G01 X47.0358 Y8.0106
G01 X46.9118 Y8.2130
G00 Z2.0000
G00 X49.3672 Y8.7857
G01 F60.00
G01 Z-0.0501
G01 F120.00
G01 X49.3518 Y8.6828
G01 X49.3253 Y8.5769
G01 X49.2885 Y8.4740
G01 X49.2418 Y8.3752
G01 X49.1856 Y8.2815
G01 X49.1205 Y8.1938
G01 X49.0472 Y8.1128
G01 X48.9662 Y8.0395
G01 X48.8785 Y7.9744
G01 X48.7848 Y7.9182
G01 X48.6860 Y7.8715
G01 X48.5831 Y7.8347
G01 X48.4772 Y7.8082
G01 X48.3691 Y7.7922
G01 X48.2600 Y7.7868
G01 X48.1509 Y7.7922
G01 X48.0428 Y7.8082
G01 X47.9369 Y7.8347
G01 X47.8340 Y7.8715
G01 X47.7352 Y7.9182
G01 X47.6415 Y7.9744
G01 X47.5538 Y8.0395
G01 X47.4728 Y8.1128
G01 X47.3995 Y8.1938
G01 X47.3344 Y8.2815
G01 X47.2782 Y8.3752
G01 X47.2315 Y8.4740
G01 X47.1947 Y8.5769
G01 X47.1682 Y8.6828
G01 X47.1522 Y8.7909
G01 X47.1468 Y8.9000
G01 X47.1522 Y9.0091
G01 X47.1682 Y9.1172
G01 X47.1947 Y9.2231
G01 X47.2315 Y9.3260
G01 X47.2782 Y9.4248
G01 X47.3344 Y9.5185
G01 X47.3995 Y9.6062
G01 X47.4728 Y9.6872
G01 X47.5538 Y9.7605
G01 X47.6415 Y9.8256
G01 X47.7352 Y9.8818
G01 X47.8340 Y9.9285
G01 X47.9369 Y9.9653
G01 X48.0428 Y9.9918
G01 X48.1509 Y10.0078
G01 X48.2600 Y10.0132
G01 X48.3691 Y10.0078
G01 X48.4772 Y9.9918
G01 X48.5831 Y9.9653
G01 X48.6860 Y9.9285
G01 X48.7848 Y9.8818
G01 X48.8785 Y9.8256
G01 X48.9662 Y9.7605
G01 X49.0472 Y9.6872
G01 X49.1205 Y9.6062
G01 X49.1856 Y9.5185
G01 X49.2418 Y9.4248
G01 X49.2885 Y9.3260
G01 X49.3253 Y9.2231
G01 X49.3518 Y9.1172
G01 X49.3678 Y9.0091
G01 X49.3732 Y8.9000
G01 X49.3682 Y8.7961
G01 X49.3672 Y8.7857
G00 Z2.0000
G00 X57.7242 Y6.0790
G01 F60.00
G01 Z-0.0501
G01 F120.00
G01 X57.7346 Y6.0779
G01 X57.8229 Y6.0647
G01 X57.9146 Y6.0417
G01 X58.0036 Y6.0099
G01 X58.0844 Y5.9718
G01 X58.0936 Y5.9669
G01 X58.1701 Y5.9209
G01 X58.2419 Y5.8678
G01 X58.2500 Y5.8612
G01 X58.3123 Y5.8047
G01 X58.3197 Y5.7973
G01 X58.3796 Y5.7311
G01 X58.4359 Y5.6551
G01 X58.4845 Y5.5741
G01 X58.5228 Y5.4934
G01 X58.5268 Y5.4837
G01 X58.5567 Y5.3996
G01 X58.5786 Y5.3130
G01 X58.5806 Y5.3028
G01 X58.5929 Y5.2196
G01 X58.5940 Y5.2092
G01 X58.5982 Y5.1200
G01 X58.5936 Y5.0256
G01 X58.5797 Y4.9321
G01 X58.5581 Y4.8454
G01 X58.5559 Y4.8377
G01 X58.5249 Y4.7514
G01 X58.4845 Y4.6659
G01 X58.4359 Y4.5849
G01 X58.3828 Y4.5131
G01 X58.3762 Y4.5050
G01 X58.3197 Y4.4427
G01 X58.3123 Y4.4353
G01 X58.2461 Y4.3754
G01 X58.1744 Y4.3221
G01 X58.1657 Y4.3163
G01 X58.0891 Y4.2705
G01 X58.0062 Y4.2312
G01 X57.9987 Y4.2282
G01 X57.9146 Y4.1983
G01 X57.8229 Y4.1753
G01 X57.7294 Y4.1614
G01 X57.6378 Y4.1568
G01 X57.3822 Y4.1568
G01 X57.2934 Y4.1612
G01 X57.2854 Y4.1621
G01 X57.1971 Y4.1753
G01 X57.1104 Y4.1969
G01 X57.1027 Y4.1991
G01 X57.0164 Y4.2301
G01 X56.9309 Y4.2705
G01 X56.8499 Y4.3191
G01 X56.7739 Y4.3754
G01 X56.7039 Y4.4389
G01 X56.6404 Y4.5089
G01 X56.5841 Y4.5849
G01 X56.5355 Y4.6659
G01 X56.4951 Y4.7514
G01 X56.4633 Y4.8404
G01 X56.4403 Y4.9321
G01 X56.4264 Y5.0256
G01 X56.4218 Y5.1200
G01 X56.4264 Y5.2144
G01 X56.4403 Y5.3079
G01 X56.4619 Y5.3946
G01 X56.4641 Y5.4023
G01 X56.4951 Y5.4886
G01 X56.5355 Y5.5741
G01 X56.5841 Y5.6551
G01 X56.6404 Y5.7311
G01 X56.7039 Y5.8011
G01 X56.7739 Y5.8646
G01 X56.8499 Y5.9209
G01 X56.9309 Y5.9695
G01 X57.0164 Y6.0099
G01 X57.1054 Y6.0417
G01 X57.1971 Y6.0647
G01 X57.2854 Y6.0779
G01 X57.2958 Y6.0790
G01 X57.3847 Y6.0832
G01 X57.6378 Y6.0832
G01 X57.7242 Y6.0790
G00 Z2.0000
G00 X58.3007 Y9.1629
G01 F60.00
G01 Z-0.0501
G01 F120.00
G01 X58.2706 Y9.1585
G01 X58.2353 Y9.1568
G01 X56.7847 Y9.1568
G01 X56.7546 Y9.1582
G01 X56.7442 Y9.1592
G01 X56.7169 Y9.1633
G01 X56.7091 Y9.1649
G01 X56.6769 Y9.1733
G01 X56.6486 Y9.1834
G01 X56.6412 Y9.1866
G01 X56.6138 Y9.1997
G01 X56.5832 Y9.2180
G01 X56.5546 Y9.2392
G01 X56.5282 Y9.2632
G01 X56.5042 Y9.2896
G01 X56.4830 Y9.3182
G01 X56.4647 Y9.3488
G01 X56.4516 Y9.3762
G01 X56.4476 Y9.3859
G01 X56.4383 Y9.4119
G01 X56.4360 Y9.4196
G01 X56.4288 Y9.4491
G01 X56.4242 Y9.4792
G01 X56.4233 Y9.4872
G01 X56.4218 Y9.5197
G01 X56.4218 Y10.7203
G01 X56.4235 Y10.7556
G01 X56.4288 Y10.7909
G01 X56.4374 Y10.8254
G01 X56.4494 Y10.8590
G01 X56.4647 Y10.8912
G01 X56.4830 Y10.9218
G01 X56.5042 Y10.9504
G01 X56.5282 Y10.9768
G01 X56.5546 Y11.0008
G01 X56.5832 Y11.0220
G01 X56.6138 Y11.0403
G01 X56.6412 Y11.0534
G01 X56.6509 Y11.0574
G01 X56.6769 Y11.0667
G01 X56.6846 Y11.0690
G01 X56.7141 Y11.0762
G01 X56.7442 Y11.0808
G01 X56.7522 Y11.0817
G01 X56.7847 Y11.0832
G01 X58.2353 Y11.0832
G01 X58.2706 Y11.0815
G01 X58.3059 Y11.0762
G01 X58.3404 Y11.0676
G01 X58.3740 Y11.0556
G01 X58.4062 Y11.0403
G01 X58.4368 Y11.0220
G01 X58.4654 Y11.0008
G01 X58.4918 Y10.9768
G01 X58.5158 Y10.9504
G01 X58.5370 Y10.9218
G01 X58.5553 Y10.8912
G01 X58.5684 Y10.8638
G01 X58.5724 Y10.8541
G01 X58.5817 Y10.8281
G01 X58.5840 Y10.8204
G01 X58.5912 Y10.7909
G01 X58.5958 Y10.7608
G01 X58.5967 Y10.7528
G01 X58.5982 Y10.7203
G01 X58.5982 Y9.5197
G01 X58.5965 Y9.4844
G01 X58.5912 Y9.4491
G01 X58.5840 Y9.4196
G01 X58.5817 Y9.4119
G01 X58.5724 Y9.3859
G01 X58.5684 Y9.3762
G01 X58.5553 Y9.3488
G01 X58.5370 Y9.3182
G01 X58.5158 Y9.2896
G01 X58.4954 Y9.2669
G01 X58.4881 Y9.2596
G01 X58.4675 Y9.2410
G01 X58.4613 Y9.2360
G01 X58.4368 Y9.2180
G01 X58.4062 Y9.1997
G01 X58.3740 Y9.1844
G01 X58.3454 Y9.1741
G01 X58.3354 Y9.1710
G01 X58.3086 Y9.1644
G01 X58.3007 Y9.1629
G00 Z2.0000
G00 X59.2904 Y18.9690
G01 F60.00
G01 Z-0.0501
G01 F120.00
G01 X59.2784 Y18.8893
G01 X59.2575 Y18.8059
G01 X59.2286 Y18.7251
G01 X59.1919 Y18.6474
G01 X59.1477 Y18.5738
G01 X59.0965 Y18.5048
G01 X59.0389 Y18.4411
G01 X58.9752 Y18.3835
G01 X58.9062 Y18.3323
G01 X58.8326 Y18.2881
G01 X58.7549 Y18.2514
G01 X58.6741 Y18.2225
G01 X58.5907 Y18.2016
G01 X58.5058 Y18.1890
G01 X58.4200 Y18.1848
G01 X58.3342 Y18.1890
G01 X58.2493 Y18.2016
G01 X58.1659 Y18.2225
G01 X58.0851 Y18.2514
G01 X58.0074 Y18.2881
G01 X57.9338 Y18.3323
G01 X57.8648 Y18.3835
G01 X57.8011 Y18.4411
G01 X57.7435 Y18.5048
G01 X57.6923 Y18.5738
G01 X57.6481 Y18.6474
G01 X57.6114 Y18.7251
G01 X57.5825 Y18.8059
G01 X57.5616 Y18.8893
G01 X57.5490 Y18.9742
G01 X57.5448 Y19.0600
G01 X57.5490 Y19.1458
G01 X57.5616 Y19.2307
G01 X57.5825 Y19.3141
G01 X57.6114 Y19.3949
G01 X57.6481 Y19.4726
G01 X57.6923 Y19.5462
G01 X57.7435 Y19.6152
G01 X57.8011 Y19.6789
G01 X57.8648 Y19.7365
G01 X57.9338 Y19.7877
G01 X58.0074 Y19.8319
G01 X58.0851 Y19.8686
G01 X58.1659 Y19.8975
G01 X58.2493 Y19.9184
G01 X58.3342 Y19.9310
G01 X58.4200 Y19.9352
G01 X58.5058 Y19.9310
G01 X58.5907 Y19.9184
G01 X58.6741 Y19.8975
G01 X58.7549 Y19.8686
G01 X58.8326 Y19.8319
G01 X58.9062 Y19.7877
G01 X58.9752 Y19.7365
G01 X59.0389 Y19.6789
G01 X59.0965 Y19.6152
G01 X59.1477 Y19.5462
G01 X59.1919 Y19.4726
G01 X59.2286 Y19.3949
G01 X59.2575 Y19.3141
G01 X59.2784 Y19.2307
G01 X59.2910 Y19.1458
G01 X59.2952 Y19.0600
G01 X59.2914 Y18.9794
G01 X59.2904 Y18.9690
G00 Z2.0000
G00 X59.2904 Y21.4890
G01 F60.00
G01 Z-0.0501
G01 F120.00
G01 X59.2784 Y21.4093
G01 X59.2575 Y21.3259
G01 X59.2286 Y21.2451
G01 X59.1919 Y21.1674
G01 X59.1477 Y21.0938
G01 X59.0965 Y21.0248
G01 X59.0389 Y20.9611
G01 X58.9752 Y20.9035
G01 X58.9062 Y20.8523
G01 X58.8326 Y20.8081
G01 X58.7549 Y20.7714
G01 X58.6741 Y20.7425
G01 X58.5907 Y20.7216
G01 X58.5058 Y20.7090
G01 X58.4200 Y20.7048
G01 X58.3342 Y20.7090
G01 X58.2493 Y20.7216
G01 X58.1659 Y20.7425
G01 X58.0851 Y20.7714
G01 X58.0074 Y20.8081
G01 X57.9338 Y20.8523
G01 X57.8648 Y20.9035
G01 X57.8011 Y20.9611
G01 X57.7435 Y21.0248
G01 X57.6923 Y21.0938
G01 X57.6481 Y21.1674
G01 X57.6114 Y21.2451
G01 X57.5825 Y21.3259
G01 X57.5616 Y21.4093
G01 X57.5490 Y21.4942
G01 X57.5448 Y21.5800
G01 X57.5490 Y21.6658
G01 X57.5616 Y21.7507
G01 X57.5825 Y21.8341
G01 X57.6114 Y21.9149
G01 X57.6481 Y21.9926
G01 X57.6923 Y22.0662
G01 X57.7435 Y22.1352
G01 X57.8011 Y22.1989
G01 X57.8648 Y22.2565
G01 X57.9338 Y22.3077
G01 X58.0074 Y22.3519
G01 X58.0851 Y22.3886
G01 X58.1659 Y22.4175
G01 X58.2493 Y22.4384
G01 X58.3342 Y22.4510
G01 X58.4200 Y22.4552
G01 X58.5058 Y22.4510
G01 X58.5907 Y22.4384
G01 X58.6741 Y22.4175
G01 X58.7549 Y22.3886
G01 X58.8326 Y22.3519
G01 X58.9062 Y22.3077
G01 X58.9752 Y22.2565
G01 X59.0389 Y22.1989
G01 X59.0965 Y22.1352
G01 X59.1477 Y22.0662
G01 X59.1919 Y21.9926
G01 X59.2286 Y21.9149
G01 X59.2575 Y21.8341
G01 X59.2784 Y21.7507
G01 X59.2910 Y21.6658
G01 X59.2952 Y21.5800
G01 X59.2914 Y21.4994
G01 X59.2904 Y21.4890
G00 Z2.0000
G00 X57.1632 Y21.3675
G01 F60.00
G01 Z-0.0501
G01 F120.00
G01 X57.1446 Y21.5800
G01 X57.1640 Y21.8015
G01 X57.2216 Y22.0162
G01 X57.3155 Y22.2177
G01 X57.4430 Y22.3998
G01 X57.6002 Y22.5570
G01 X57.7823 Y22.6845
G01 X57.9838 Y22.7784
G01 X58.1985 Y22.8360
G01 X58.4200 Y22.8554
G01 X58.6415 Y22.8360
G01 X58.8562 Y22.7784
G01 X59.0577 Y22.6845
G01 X59.2398 Y22.5570
G01 X59.3970 Y22.3998
G01 X59.5245 Y22.2177
G01 X59.6184 Y22.0162
G01 X59.6760 Y21.8015
G01 X59.6801 Y21.7547
G01 X59.6954 Y21.5800
G01 X59.6760 Y21.3585
G01 X59.6184 Y21.1438
G01 X59.5245 Y20.9423
G01 X59.3970 Y20.7602
G01 X59.2398 Y20.6030
G01 X59.0684 Y20.4830
G01 X59.0090 Y20.4173
G01 X58.9839 Y20.3324
G01 X58.9982 Y20.2450
G01 X59.0490 Y20.1724
G01 X59.0686 Y20.1568
G01 X59.2398 Y20.0370
G01 X59.3970 Y19.8798
G01 X59.5245 Y19.6977
G01 X59.6184 Y19.4962
G01 X59.6760 Y19.2815
G01 X59.6954 Y19.0600
G01 X59.6760 Y18.8385
G01 X59.6184 Y18.6238
G01 X59.5245 Y18.4223
G01 X59.3970 Y18.2402
G01 X59.2398 Y18.0830
G01 X59.0577 Y17.9555
G01 X58.8562 Y17.8616
G01 X58.6415 Y17.8040
G01 X58.4200 Y17.7846
G01 X58.1985 Y17.8040
G01 X58.1901 Y17.8063
G01 X57.9838 Y17.8616
G01 X57.7823 Y17.9555
G01 X57.6002 Y18.0830
G01 X57.4430 Y18.2402
G01 X57.3155 Y18.4223
G01 X57.2216 Y18.6238
G01 X57.1640 Y18.8385
G01 X57.1446 Y19.0600
G01 X57.1640 Y19.2815
G01 X57.2216 Y19.4962
G01 X57.3155 Y19.6977
G01 X57.4430 Y19.8798
G01 X57.6002 Y20.0370
G01 X57.7716 Y20.1570
G01 X57.8310 Y20.2227
G01 X57.8561 Y20.3076
G01 X57.8418 Y20.3950
G01 X57.7910 Y20.4676
G01 X57.7714 Y20.4832
G01 X57.6002 Y20.6030
G01 X57.4430 Y20.7602
G01 X57.3155 Y20.9423
G01 X57.2216 Y21.1438
G01 X57.1640 Y21.3585
G01 X57.1632 Y21.3675
G00 Z2.0000
M05
G00 Z2.0000
G00 Z15.00


